;FLAVOR:UltiGCode
;TIME:7809
;MATERIAL:15305
;MATERIAL2:0
;NOZZLE_DIAMETER:0.4
;Generated with Cura_SteamEngine 2.3.0

;LAYER_COUNT:70
;LAYER:0
M107
G10
G0 F4500 X56.778 Y49.243 Z.15
;TYPE:SKIRT
G11
G1 F1800 X57.164 Y48.919 E0.02721
G1 X57.597 Y48.66 E0.05446
G1 X58.064 Y48.473 E0.08162
G1 X58.556 Y48.361 E0.10887
G1 X59.009 Y48.329 E0.13339
G1 X163.991 Y48.33 E5.80242
G1 X164.493 Y48.37 E5.82962
G1 X164.983 Y48.489 E5.85685
G1 X165.448 Y48.683 E5.88405
G1 X165.876 Y48.949 E5.91127
G1 X166.257 Y49.279 E5.93848
G1 X166.581 Y49.665 E5.9657
G1 X166.84 Y50.098 E5.99294
G1 X167.027 Y50.565 E6.02011
G1 X167.139 Y51.057 E6.04736
G1 X167.171 Y51.51 E6.07188
G1 X167.17 Y100.1 E8.69574
G1 X167.13 Y100.602 E8.72293
G1 X167.004 Y101.114 E8.75141
G1 X165.264 Y106.287 E9.04613
G1 X163.809 Y111.578 E9.34245
G1 X163.193 Y114.249 E9.49047
G1 X162.665 Y116.897 E9.63627
G1 X161.815 Y122.326 E9.93301
G1 X161.275 Y127.789 E10.22945
G1 X161.045 Y133.24 E10.52407
G1 X161.124 Y138.73 E10.82056
G1 X161.513 Y144.192 E11.11625
G1 X162.208 Y149.617 E11.4116
G1 X163.217 Y155.029 E11.70888
G1 X163.811 Y157.614 E11.85211
G1 X165.284 Y162.959 E12.1515
G1 X167.005 Y168.091 E12.44379
G1 X167.127 Y168.58 E12.47101
G1 X167.17 Y169.101 E12.49924
G1 X167.171 Y171.49 E12.62824
G1 X167.131 Y171.992 E12.65544
G1 X167.013 Y172.482 E12.68265
G1 X166.818 Y172.947 E12.70988
G1 X166.553 Y173.375 E12.73707
G1 X166.223 Y173.756 E12.76429
G1 X165.837 Y174.08 E12.7915
G1 X165.405 Y174.34 E12.81873
G1 X164.937 Y174.527 E12.84594
G1 X164.445 Y174.638 E12.87318
G1 X163.991 Y174.671 E12.89776
G1 X59.009 Y174.671 E18.56679
G1 X58.507 Y174.631 E18.59398
G1 X58.017 Y174.512 E18.62121
G1 X57.552 Y174.318 E18.64842
G1 X57.124 Y174.052 E18.67563
G1 X56.743 Y173.722 E18.70285
G1 X56.419 Y173.336 E18.73006
G1 X56.16 Y172.903 E18.75731
G1 X55.973 Y172.436 E18.78447
G1 X55.861 Y171.944 E18.81172
G1 X55.829 Y171.488 E18.8364
G1 X55.831 Y169.094 E18.96568
G1 X55.871 Y168.592 E18.99287
G1 X56.012 Y168.041 E19.02358
G1 X56.889 Y165.551 E19.16614
G1 X58.495 Y160.297 E19.46282
G1 X59.812 Y154.922 E19.76165
G1 X60.335 Y152.303 E19.90587
G1 X61.185 Y146.874 E20.20261
G1 X61.725 Y141.411 E20.49905
G1 X61.955 Y135.96 E20.79366
G1 X61.876 Y130.47 E21.09015
G1 X61.487 Y125.008 E21.38585
G1 X60.792 Y119.583 E21.68119
G1 X59.783 Y114.171 E21.97848
G1 X59.189 Y111.586 E22.1217
G1 X57.716 Y106.24 E22.42115
G1 X55.994 Y101.105 E22.71361
G1 X55.872 Y100.616 E22.74083
G1 X55.829 Y100.094 E22.76911
G1 X55.829 Y51.509 E25.3927
G1 X55.869 Y51.007 E25.4199
G1 X55.988 Y50.517 E25.44712
G1 X56.182 Y50.052 E25.47433
G1 X56.448 Y49.624 E25.50154
G1 X56.778 Y49.243 E25.52876
G10
G0 F4500 X59.568 Y50.804
G0 X59.568 Y52.068
G0 X59.9 Y52.4
;TYPE:WALL-INNER
G11
G1 F1800 X163.1 Y52.4 E31.10156
G1 X163.1 Y99.201 E33.62882
G1 X150.1 Y99.201 E34.33082
G1 X150.1 Y169.999 E38.15391
G1 X163.1 Y169.999 E38.85591
G1 X163.1 Y170.6 E38.88836
G1 X59.9 Y170.6 E44.46116
G1 X59.9 Y169.999 E44.49362
G1 X72.9 Y169.999 E45.19562
G1 X72.9 Y99.201 E49.01871
G1 X59.9 Y99.201 E49.72071
G1 X59.9 Y52.4 E52.24796
G0 F4500 X64.932 Y57.107
G1 F1800 X64.513 Y57.557 E52.28117
G1 X64.216 Y58.096 E52.3144
G1 X64.063 Y58.693 E52.34768
G1 X64.063 Y59.308 E52.38089
G1 X64.216 Y59.905 E52.41417
G1 X64.513 Y60.444 E52.4474
G1 X64.932 Y60.894 E52.4806
G1 X65.455 Y61.223 E52.51397
G1 X66.04 Y61.415 E52.54722
G1 X66.655 Y61.452 E52.58049
G1 X67.259 Y61.338 E52.61368
G1 X67.817 Y61.074 E52.64701
G1 X68.291 Y60.684 E52.68016
G1 X68.654 Y60.184 E52.71352
G1 X68.88 Y59.611 E52.74678
G1 X68.958 Y59 E52.78005
G1 X68.88 Y58.39 E52.81325
G1 X68.654 Y57.817 E52.84652
G1 X68.291 Y57.317 E52.87988
G1 X67.817 Y56.927 E52.91303
G1 X67.259 Y56.663 E52.94636
G1 X66.655 Y56.549 E52.97955
G1 X66.04 Y56.586 E53.01282
G1 X65.455 Y56.778 E53.04607
G1 X64.932 Y57.107 E53.07944
G0 F4500 X66.101 Y56.904
G0 X66.634 Y56.872
G0 X67.159 Y56.97
G0 X67.644 Y57.2
G0 X68.056 Y57.539
G0 X70.6 Y60.6
G1 F1800 X70.6 Y82.4 E54.25664
G1 X152.4 Y82.4 E58.67384
G1 X152.4 Y60.6 E59.85104
G1 X70.6 Y60.6 E64.26824
G0 F4500 X66.655 Y89.049
G1 F1800 X66.04 Y89.086 E64.30151
G1 X65.455 Y89.278 E64.33476
G1 X64.932 Y89.607 E64.36812
G1 X64.513 Y90.057 E64.40132
G1 X64.216 Y90.596 E64.43456
G1 X64.063 Y91.193 E64.46784
G1 X64.063 Y91.808 E64.50105
G1 X64.216 Y92.405 E64.53433
G1 X64.513 Y92.944 E64.56756
G1 X64.932 Y93.394 E64.60076
G1 X65.455 Y93.723 E64.63413
G1 X66.04 Y93.915 E64.66737
G1 X66.655 Y93.952 E64.70064
G1 X67.259 Y93.838 E64.73384
G1 X67.817 Y93.574 E64.76717
G1 X68.291 Y93.184 E64.80032
G1 X68.654 Y92.684 E64.83368
G1 X68.88 Y92.111 E64.86694
G1 X68.958 Y91.5 E64.9002
G1 X68.88 Y90.89 E64.93341
G1 X68.654 Y90.317 E64.96667
G1 X68.291 Y89.817 E65.00004
G1 X67.817 Y89.427 E65.03319
G1 X67.259 Y89.163 E65.06652
G1 X66.655 Y89.049 E65.09971
G0 F4500 X80.6 Y95.6
G1 F1800 X80.6 Y147.4 E67.89691
G1 X142.4 Y147.4 E71.23411
G1 X142.4 Y95.6 E74.03131
G1 X80.6 Y95.6 E77.36851
G0 F4500 X85.383 Y91.904
G1 F1800 X85.802 Y92.354 E77.40172
G1 X86.325 Y92.683 E77.43508
G1 X86.91 Y92.875 E77.46833
G1 X87.525 Y92.912 E77.5016
G1 X88.129 Y92.798 E77.53479
G1 X88.687 Y92.534 E77.56812
G1 X89.161 Y92.144 E77.60127
G1 X89.524 Y91.644 E77.63464
G1 X89.75 Y91.072 E77.66785
G1 X89.829 Y90.46 E77.70117
G1 X89.75 Y89.849 E77.73444
G1 X89.524 Y89.277 E77.76765
G1 X89.161 Y88.777 E77.80102
G1 X88.687 Y88.387 E77.83416
G1 X88.129 Y88.123 E77.8675
G1 X87.525 Y88.009 E77.90069
G1 X86.91 Y88.046 E77.93396
G1 X86.325 Y88.238 E77.96721
G1 X85.802 Y88.567 E78.00057
G1 X85.383 Y89.017 E78.03377
G1 X85.086 Y89.556 E78.06701
G1 X84.933 Y90.153 E78.10029
G1 X84.933 Y90.768 E78.1335
G1 X85.086 Y91.365 E78.16678
G1 X85.383 Y91.904 E78.20001
G0 F4500 X86.462 Y92.391
G0 X86.971 Y92.557
G0 X87.504 Y92.589
G0 X133.192 Y90.768
G1 F1800 X133.345 Y91.365 E78.23329
G1 X133.642 Y91.904 E78.26652
G1 X134.061 Y92.354 E78.29972
G1 X134.584 Y92.683 E78.33309
G1 X135.169 Y92.875 E78.36634
G1 X135.784 Y92.912 E78.39961
G1 X136.388 Y92.798 E78.4328
G1 X136.946 Y92.534 E78.46613
G1 X137.42 Y92.144 E78.49928
G1 X137.783 Y91.644 E78.53264
G1 X138.009 Y91.072 E78.56585
G1 X138.088 Y90.46 E78.59918
G1 X138.009 Y89.849 E78.63245
G1 X137.783 Y89.277 E78.66566
G1 X137.42 Y88.777 E78.69902
G1 X136.946 Y88.387 E78.73217
G1 X136.388 Y88.123 E78.7655
G1 X135.784 Y88.009 E78.79869
G1 X135.169 Y88.046 E78.83197
G1 X134.584 Y88.238 E78.86521
G1 X134.061 Y88.567 E78.89858
G1 X133.642 Y89.017 E78.93178
G1 X133.345 Y89.556 E78.96501
G1 X133.192 Y90.153 E78.99829
G1 X133.192 Y90.768 E79.0315
G0 F4500 X134.268 Y92.104
G0 X134.721 Y92.391
G0 X135.23 Y92.557
G0 X135.763 Y92.589
G0 X154.062 Y91.193
G1 F1800 X154.062 Y91.808 E79.06471
G1 X154.215 Y92.405 E79.09799
G1 X154.512 Y92.944 E79.13123
G1 X154.931 Y93.394 E79.16443
G1 X155.454 Y93.723 E79.19779
G1 X156.039 Y93.915 E79.23104
G1 X156.654 Y93.952 E79.26431
G1 X157.258 Y93.838 E79.2975
G1 X157.816 Y93.574 E79.33084
G1 X158.29 Y93.184 E79.36398
G1 X158.653 Y92.684 E79.39735
G1 X158.879 Y92.111 E79.43061
G1 X158.957 Y91.5 E79.46387
G1 X158.879 Y90.89 E79.49708
G1 X158.653 Y90.317 E79.53034
G1 X158.29 Y89.817 E79.56371
G1 X157.816 Y89.427 E79.59685
G1 X157.258 Y89.163 E79.63019
G1 X156.654 Y89.049 E79.66338
G1 X156.039 Y89.086 E79.69665
G1 X155.454 Y89.278 E79.7299
G1 X154.931 Y89.607 E79.76326
G1 X154.512 Y90.057 E79.79647
G1 X154.215 Y90.596 E79.8297
G1 X154.062 Y91.193 E79.86298
G0 F4500 X156.039 Y61.415
G1 F1800 X156.654 Y61.452 E79.89625
G1 X157.258 Y61.338 E79.92944
G1 X157.816 Y61.074 E79.96277
G1 X158.29 Y60.684 E79.99592
G1 X158.653 Y60.184 E80.02929
G1 X158.879 Y59.611 E80.06255
G1 X158.957 Y59 E80.09581
G1 X158.879 Y58.39 E80.12902
G1 X158.653 Y57.817 E80.16228
G1 X158.29 Y57.317 E80.19564
G1 X157.816 Y56.927 E80.22879
G1 X157.258 Y56.663 E80.26212
G1 X156.654 Y56.549 E80.29532
G1 X156.039 Y56.586 E80.32859
G1 X155.454 Y56.778 E80.36183
G1 X154.931 Y57.107 E80.3952
G1 X154.512 Y57.557 E80.4284
G1 X154.215 Y58.096 E80.46163
G1 X154.062 Y58.693 E80.49491
G1 X154.062 Y59.308 E80.52812
G1 X154.215 Y59.905 E80.5614
G1 X154.512 Y60.444 E80.59464
G1 X154.931 Y60.894 E80.62784
G1 X155.454 Y61.223 E80.6612
G1 X156.039 Y61.415 E80.69445
G0 F4500 X152.068 Y82.068
G0 X150.971 Y82.001
G0 X142.029 Y118.334
G0 X134.974 Y147
G0 X133.213 Y154.162
G1 F1800 X132.609 Y154.048 E80.72764
G1 X131.994 Y154.085 E80.76091
G1 X131.409 Y154.277 E80.79416
G1 X130.886 Y154.606 E80.82753
G1 X130.467 Y155.056 E80.86073
G1 X130.17 Y155.595 E80.89396
G1 X130.017 Y156.192 E80.92724
G1 X130.017 Y156.807 E80.96045
G1 X130.17 Y157.404 E80.99373
G1 X130.467 Y157.943 E81.02696
G1 X130.886 Y158.393 E81.06017
G1 X131.409 Y158.722 E81.09353
G1 X131.994 Y158.914 E81.12678
G1 X132.609 Y158.951 E81.16005
G1 X133.213 Y158.837 E81.19324
G1 X133.771 Y158.573 E81.22658
G1 X134.245 Y158.183 E81.25972
G1 X134.608 Y157.683 E81.29309
G1 X134.834 Y157.11 E81.32635
G1 X134.912 Y156.5 E81.35956
G1 X134.834 Y155.889 E81.39282
G1 X134.608 Y155.316 E81.42608
G1 X134.245 Y154.816 E81.45945
G1 X133.771 Y154.426 E81.49259
G1 X133.213 Y154.162 E81.52593
G0 F4500 X93.003 Y156.5
G1 F1800 X92.925 Y155.889 E81.55919
G1 X92.699 Y155.316 E81.59245
G1 X92.336 Y154.816 E81.62582
G1 X91.862 Y154.426 E81.65896
G1 X91.304 Y154.162 E81.6923
G1 X90.7 Y154.048 E81.72549
G1 X90.085 Y154.085 E81.75876
G1 X89.5 Y154.277 E81.79201
G1 X88.977 Y154.606 E81.82537
G1 X88.558 Y155.056 E81.85857
G1 X88.261 Y155.595 E81.89181
G1 X88.108 Y156.192 E81.92509
G1 X88.108 Y156.807 E81.9583
G1 X88.261 Y157.404 E81.99158
G1 X88.558 Y157.943 E82.02481
G1 X88.977 Y158.393 E82.05801
G1 X89.5 Y158.722 E82.09138
G1 X90.085 Y158.914 E82.12462
G1 X90.7 Y158.951 E82.1579
G1 X91.304 Y158.837 E82.19109
G1 X91.862 Y158.573 E82.22442
G1 X92.336 Y158.183 E82.25757
G1 X92.699 Y157.683 E82.29093
G1 X92.925 Y157.11 E82.32419
G1 X93.003 Y156.5 E82.3574
G0 F4500 X92.64 Y156.5
G1 F1800 X92.574 Y155.979 E82.38576
G1 X92.381 Y155.491 E82.4141
G1 X92.072 Y155.065 E82.44252
G1 X91.668 Y154.732 E82.47079
G1 X91.192 Y154.507 E82.49922
G1 X90.677 Y154.41 E82.52752
G1 X90.153 Y154.442 E82.55587
G1 X89.654 Y154.605 E82.58422
G1 X89.209 Y154.886 E82.61264
G1 X88.852 Y155.269 E82.64091
G1 X88.598 Y155.729 E82.66928
G1 X88.468 Y156.237 E82.6976
G1 X88.468 Y156.762 E82.72595
G1 X88.598 Y157.27 E82.75427
G1 X88.852 Y157.73 E82.78264
G1 X89.209 Y158.113 E82.81091
G1 X89.654 Y158.394 E82.83933
G1 X90.153 Y158.557 E82.86768
G1 X90.677 Y158.589 E82.89603
G1 X91.192 Y158.492 E82.92433
G1 X91.668 Y158.267 E82.95276
G1 X92.072 Y157.934 E82.98103
G1 X92.381 Y157.508 E83.00945
G1 X92.574 Y157.02 E83.03779
G1 X92.64 Y156.5 E83.06609
G0 F4500 X92.74 Y156.5
G0 X92.416 Y155.472
G0 X92.101 Y155.038
G0 X91.689 Y154.699
G0 X80.89 Y147.11
G0 X80.96 Y147.04
G1 F1800 X142.04 Y147.04 E86.36441
G1 X142.04 Y95.96 E89.12273
G1 X80.96 Y95.96 E92.42105
G1 X80.96 Y147.04 E95.17937
G0 F4500 X80.89 Y147.11
G0 X72.61 Y169.709
G0 X72.54 Y169.639
G1 F1800 X72.54 Y99.561 E98.96359
G1 X59.54 Y99.561 E99.66559
G1 X59.54 Y52.04 E102.23172
G1 X163.46 Y52.04 E107.8434
G1 X163.46 Y99.561 E110.40953
G1 X150.46 Y99.561 E111.11153
G1 X150.46 Y169.639 E114.89575
G1 X163.46 Y169.639 E115.59775
G1 X163.46 Y170.96 E115.66908
G1 X59.54 Y170.96 E121.28076
G1 X59.54 Y169.639 E121.35209
G1 X72.54 Y169.639 E122.05409
G0 F4500 X72.61 Y169.709
G0 X130.278 Y156.774
G0 X130.377 Y156.762
G1 F1800 X130.507 Y157.27 E122.08241
G1 X130.761 Y157.73 E122.11079
G1 X131.118 Y158.113 E122.13906
G1 X131.563 Y158.394 E122.16748
G1 X132.062 Y158.557 E122.19583
G1 X132.586 Y158.589 E122.22417
G1 X133.101 Y158.492 E122.25247
G1 X133.577 Y158.267 E122.2809
G1 X133.981 Y157.934 E122.30918
G1 X134.29 Y157.508 E122.33759
G1 X134.483 Y157.02 E122.36593
G1 X134.549 Y156.5 E122.39424
G1 X134.483 Y155.979 E122.4226
G1 X134.29 Y155.491 E122.45093
G1 X133.981 Y155.065 E122.47935
G1 X133.577 Y154.732 E122.50762
G1 X133.101 Y154.507 E122.53606
G1 X132.586 Y154.41 E122.56435
G1 X132.062 Y154.442 E122.5927
G1 X131.563 Y154.605 E122.62105
G1 X131.118 Y154.886 E122.64947
G1 X130.761 Y155.269 E122.67774
G1 X130.507 Y155.729 E122.70612
G1 X130.377 Y156.237 E122.73444
G1 X130.377 Y156.762 E122.76279
G0 F4500 X130.278 Y156.774
G0 X80.932 Y147.068
G0 X80.932 Y95.932
G0 X135.219 Y92.616
G0 X135.237 Y92.518
G1 F1800 X135.761 Y92.55 E122.79113
G1 X136.276 Y92.453 E122.81943
G1 X136.752 Y92.228 E122.84786
G1 X137.156 Y91.895 E122.87614
G1 X137.465 Y91.469 E122.90455
G1 X137.658 Y90.981 E122.93289
G1 X137.725 Y90.46 E122.96126
G1 X137.658 Y89.94 E122.98957
G1 X137.465 Y89.452 E123.01791
G1 X137.156 Y89.026 E123.04633
G1 X136.752 Y88.693 E123.0746
G1 X136.276 Y88.468 E123.10303
G1 X135.761 Y88.371 E123.13133
G1 X135.237 Y88.403 E123.15968
G1 X134.738 Y88.566 E123.18802
G1 X134.293 Y88.847 E123.21644
G1 X133.936 Y89.23 E123.24472
G1 X133.682 Y89.69 E123.27309
G1 X133.552 Y90.198 E123.30141
G1 X133.552 Y90.723 E123.32976
G1 X133.682 Y91.231 E123.35807
G1 X133.936 Y91.691 E123.38645
G1 X134.293 Y92.074 E123.41472
G1 X134.738 Y92.355 E123.44314
G1 X135.237 Y92.518 E123.47149
G0 F4500 X135.219 Y92.616
G0 X154.323 Y91.775
G0 X154.422 Y91.763
G1 F1800 X154.552 Y92.271 E123.49981
G1 X154.806 Y92.731 E123.52818
G1 X155.163 Y93.114 E123.55645
G1 X155.608 Y93.395 E123.58487
G1 X156.107 Y93.558 E123.61322
G1 X156.631 Y93.59 E123.64157
G1 X157.146 Y93.493 E123.66987
G1 X157.622 Y93.268 E123.6983
G1 X158.026 Y92.935 E123.72657
G1 X158.335 Y92.509 E123.75499
G1 X158.528 Y92.021 E123.78333
G1 X158.594 Y91.5 E123.81169
G1 X158.528 Y90.98 E123.83999
G1 X158.335 Y90.492 E123.86833
G1 X158.026 Y90.066 E123.89675
G1 X157.622 Y89.733 E123.92502
G1 X157.146 Y89.508 E123.95345
G1 X156.631 Y89.411 E123.98175
G1 X156.107 Y89.443 E124.0101
G1 X155.608 Y89.606 E124.03845
G1 X155.163 Y89.887 E124.06687
G1 X154.806 Y90.27 E124.09514
G1 X154.552 Y90.73 E124.12352
G1 X154.422 Y91.238 E124.15183
G1 X154.422 Y91.763 E124.18018
G0 F4500 X154.323 Y91.775
G0 X156.089 Y61.156
G0 X156.107 Y61.058
G1 F1800 X156.631 Y61.09 E124.20853
G1 X157.146 Y60.993 E124.23683
G1 X157.622 Y60.768 E124.26526
G1 X158.026 Y60.435 E124.29353
G1 X158.335 Y60.009 E124.32195
G1 X158.528 Y59.521 E124.35029
G1 X158.594 Y59 E124.37865
G1 X158.528 Y58.48 E124.40695
G1 X158.335 Y57.992 E124.43529
G1 X158.026 Y57.566 E124.46371
G1 X157.622 Y57.233 E124.49198
G1 X157.146 Y57.008 E124.52041
G1 X156.631 Y56.911 E124.54871
G1 X156.107 Y56.943 E124.57706
G1 X155.608 Y57.106 E124.60541
G1 X155.163 Y57.387 E124.63383
G1 X154.806 Y57.77 E124.6621
G1 X154.552 Y58.23 E124.69047
G1 X154.422 Y58.738 E124.71879
G1 X154.422 Y59.263 E124.74714
G1 X154.552 Y59.771 E124.77546
G1 X154.806 Y60.231 E124.80383
G1 X155.163 Y60.614 E124.83211
G1 X155.608 Y60.895 E124.86053
G1 X156.107 Y61.058 E124.88887
G0 F4500 X156.089 Y61.156
G0 X152.068 Y82.068
G0 X89.293 Y89.404
G0 X89.206 Y89.452
G1 F1800 X88.897 Y89.026 E124.91729
G1 X88.493 Y88.693 E124.94556
G1 X88.017 Y88.468 E124.97399
G1 X87.502 Y88.371 E125.00229
G1 X86.978 Y88.403 E125.03064
G1 X86.479 Y88.566 E125.05899
G1 X86.034 Y88.847 E125.08741
G1 X85.677 Y89.23 E125.11568
G1 X85.423 Y89.69 E125.14406
G1 X85.293 Y90.198 E125.17237
G1 X85.293 Y90.723 E125.20072
G1 X85.423 Y91.231 E125.22904
G1 X85.677 Y91.691 E125.25741
G1 X86.034 Y92.074 E125.28569
G1 X86.479 Y92.355 E125.31411
G1 X86.978 Y92.518 E125.34245
G1 X87.502 Y92.55 E125.3708
G1 X88.017 Y92.453 E125.3991
G1 X88.493 Y92.228 E125.42753
G1 X88.897 Y91.895 E125.45581
G1 X89.206 Y91.469 E125.48422
G1 X89.399 Y90.981 E125.51256
G1 X89.466 Y90.46 E125.54093
G1 X89.399 Y89.94 E125.56924
G1 X89.206 Y89.452 E125.59758
G0 F4500 X89.293 Y89.404
G0 X88.926 Y88.999
G0 X88.514 Y88.66
G0 X88.029 Y88.43
G0 X70.89 Y82.11
G0 X70.96 Y82.04
G1 F1800 X152.04 Y82.04 E129.9759
G1 X152.04 Y60.96 E131.11422
G1 X70.96 Y60.96 E135.49254
G1 X70.96 Y82.04 E136.63086
G0 F4500 X70.89 Y82.11
G0 X67.177 Y89.413
G0 X67.147 Y89.508
G1 F1800 X66.632 Y89.411 E136.65916
G1 X66.108 Y89.443 E136.68751
G1 X65.609 Y89.606 E136.71585
G1 X65.164 Y89.887 E136.74427
G1 X64.807 Y90.27 E136.77255
G1 X64.553 Y90.73 E136.80092
G1 X64.423 Y91.238 E136.82924
G1 X64.423 Y91.763 E136.85759
G1 X64.553 Y92.271 E136.8859
