;FLAVOR:UltiGCode
;TIME:22838
;MATERIAL:39435
;MATERIAL2:0
;NOZZLE_DIAMETER:0.4
;Generated with Cura_SteamEngine 2.3.0

;LAYER_COUNT:187
;LAYER:0
M107
G10
G0 F4500 X55.531 Y48.137 Z.15
;TYPE:SKIRT
G11
G1 F1800 X55.992 Y47.718 E0.03364
G1 X56.504 Y47.362 E0.06731
G1 X57.057 Y47.074 E0.10098
G1 X57.642 Y46.86 E0.13462
G1 X58.249 Y46.721 E0.16825
G1 X59.02 Y46.66 E0.21001
G1 X163.98 Y46.66 E5.87785
G1 X164.602 Y46.7 E5.91151
G1 X165.214 Y46.819 E5.94518
G1 X165.805 Y47.016 E5.97882
G1 X166.366 Y47.286 E6.01244
G1 X166.889 Y47.626 E6.04612
G1 X167.363 Y48.031 E6.07979
G1 X167.782 Y48.492 E6.11343
G1 X168.138 Y49.004 E6.1471
G1 X168.426 Y49.557 E6.18077
G1 X168.64 Y50.142 E6.21441
G1 X168.779 Y50.749 E6.24804
G1 X168.84 Y51.52 E6.2898
G1 X168.84 Y100.127 E8.91458
G1 X168.8 Y100.749 E8.94823
G1 X168.681 Y101.361 E8.9819
G1 X168.484 Y101.952 E9.01554
G1 X168.214 Y102.513 E9.04916
G1 X167.874 Y103.036 E9.08285
G1 X167.469 Y103.51 E9.11651
G1 X167.008 Y103.929 E9.15015
G1 X166.496 Y104.285 E9.18383
G1 X165.943 Y104.573 E9.2175
G1 X165.841 Y104.61 E9.22336
G1 X166.182 Y104.723 E9.24276
G1 X166.743 Y104.994 E9.2764
G1 X167.265 Y105.334 E9.31004
G1 X167.74 Y105.738 E9.34371
G1 X168.158 Y106.2 E9.37736
G1 X168.515 Y106.711 E9.41102
G1 X168.802 Y107.264 E9.44466
G1 X169.017 Y107.849 E9.47832
G1 X169.155 Y108.457 E9.51198
G1 X169.217 Y109.228 E9.55375
G1 X169.217 Y131.624 E10.76314
G1 X169.177 Y132.246 E10.79679
G1 X169.058 Y132.858 E10.83046
G1 X169.04 Y132.912 E10.83353
G1 X169.04 Y136.287 E11.01578
G1 X169.056 Y136.335 E11.01852
G1 X169.176 Y136.946 E11.05214
G1 X169.217 Y137.575 E11.08618
G1 X169.217 Y160.148 E12.30512
G1 X169.177 Y160.77 E12.33878
G1 X169.058 Y161.382 E12.37245
G1 X168.861 Y161.973 E12.40609
G1 X168.591 Y162.534 E12.43971
G1 X168.251 Y163.057 E12.47339
G1 X167.846 Y163.531 E12.50706
G1 X167.385 Y163.95 E12.5407
G1 X166.873 Y164.306 E12.57437
G1 X166.32 Y164.594 E12.60804
G1 X166.058 Y164.69 E12.62311
G1 X166.366 Y164.838 E12.64156
G1 X166.888 Y165.178 E12.6752
G1 X167.363 Y165.582 E12.70887
G1 X167.781 Y166.044 E12.74252
G1 X168.138 Y166.555 E12.77618
G1 X168.426 Y167.108 E12.80985
G1 X168.64 Y167.693 E12.84349
G1 X168.778 Y168.301 E12.87715
G1 X168.84 Y169.072 E12.91892
G1 X168.84 Y171.48 E13.04895
G1 X168.8 Y172.102 E13.08261
G1 X168.681 Y172.714 E13.11628
G1 X168.484 Y173.305 E13.14992
G1 X168.214 Y173.866 E13.18354
G1 X167.874 Y174.389 E13.21722
G1 X167.469 Y174.863 E13.25089
G1 X167.008 Y175.282 E13.28453
G1 X166.496 Y175.638 E13.3182
G1 X165.943 Y175.926 E13.35187
G1 X165.358 Y176.14 E13.38551
G1 X164.751 Y176.279 E13.41914
G1 X163.98 Y176.34 E13.4609
G1 X59.02 Y176.34 E19.12874
G1 X58.398 Y176.3 E19.1624
G1 X57.786 Y176.181 E19.19607
G1 X57.195 Y175.984 E19.22971
G1 X56.634 Y175.714 E19.26333
G1 X56.111 Y175.374 E19.29701
G1 X55.637 Y174.969 E19.33068
G1 X55.218 Y174.508 E19.36432
G1 X54.862 Y173.996 E19.39799
G1 X54.574 Y173.443 E19.43166
G1 X54.36 Y172.858 E19.4653
G1 X54.221 Y172.251 E19.49893
G1 X54.16 Y171.48 E19.54069
G1 X54.16 Y169.072 E19.67072
G1 X54.2 Y168.45 E19.70438
G1 X54.319 Y167.838 E19.73805
G1 X54.516 Y167.247 E19.77169
G1 X54.786 Y166.686 E19.80531
G1 X55.126 Y166.163 E19.83899
G1 X55.531 Y165.689 E19.87266
G1 X55.992 Y165.27 E19.9063
G1 X56.504 Y164.914 E19.93997
G1 X56.932 Y164.691 E19.96603
G1 X56.818 Y164.653 E19.97252
G1 X56.257 Y164.383 E20.00614
G1 X55.734 Y164.043 E20.03983
G1 X55.26 Y163.638 E20.07349
G1 X54.841 Y163.177 E20.10713
G1 X54.485 Y162.665 E20.14081
G1 X54.197 Y162.112 E20.17448
G1 X53.983 Y161.527 E20.20812
G1 X53.844 Y160.92 E20.24174
G1 X53.783 Y160.149 E20.28351
G1 X53.783 Y137.575 E21.5025
G1 X53.823 Y136.953 E21.53616
G1 X53.942 Y136.341 E21.56983
G1 X53.96 Y136.287 E21.5729
G1 X53.96 Y132.912 E21.75515
G1 X53.944 Y132.864 E21.75788
G1 X53.824 Y132.253 E21.79151
G1 X53.783 Y131.624 E21.82554
G1 X53.783 Y109.229 E23.03487
G1 X53.823 Y108.607 E23.06853
G1 X53.942 Y107.995 E23.1022
G1 X54.139 Y107.404 E23.13584
G1 X54.409 Y106.843 E23.16946
G1 X54.749 Y106.32 E23.20314
G1 X55.154 Y105.846 E23.23681
G1 X55.615 Y105.427 E23.27045
G1 X56.127 Y105.071 E23.30413
G1 X56.68 Y104.783 E23.33779
G1 X57.15 Y104.611 E23.36482
G1 X56.633 Y104.361 E23.39583
G1 X56.111 Y104.021 E23.42947
G1 X55.636 Y103.617 E23.46314
G1 X55.218 Y103.155 E23.49679
G1 X54.862 Y102.644 E23.53042
G1 X54.574 Y102.091 E23.56409
G1 X54.359 Y101.506 E23.59774
G1 X54.221 Y100.898 E23.63141
G1 X54.16 Y100.128 E23.67312
G1 X54.16 Y51.52 E26.29795
G1 X54.2 Y50.898 E26.33161
G1 X54.319 Y50.286 E26.36528
G1 X54.516 Y49.695 E26.39892
G1 X54.786 Y49.134 E26.43254
G1 X55.126 Y48.611 E26.46622
G1 X55.531 Y48.137 E26.49989
G0 F4500 X55.885 Y48.291
G1 F1800 X56.342 Y47.903 E26.53226
G1 X56.847 Y47.579 E26.56466
G1 X57.39 Y47.325 E26.59703
G1 X57.963 Y47.146 E26.62945
G1 X58.553 Y47.044 E26.66178
G1 X59.02 Y47.02 E26.68703
G1 X163.98 Y47.02 E32.35487
G1 X164.578 Y47.06 E32.38724
G1 X165.166 Y47.179 E32.41963
G1 X165.733 Y47.375 E32.45203
G1 X166.268 Y47.645 E32.48439
G1 X166.763 Y47.984 E32.51679
G1 X167.209 Y48.385 E32.54918
G1 X167.597 Y48.842 E32.58155
G1 X167.921 Y49.347 E32.61395
G1 X168.175 Y49.89 E32.64632
G1 X168.354 Y50.463 E32.67874
G1 X168.456 Y51.053 E32.71107
G1 X168.48 Y51.52 E32.73632
G1 X168.48 Y100.127 E35.3611
G1 X168.44 Y100.725 E35.39346
G1 X168.321 Y101.313 E35.42586
G1 X168.125 Y101.88 E35.45825
G1 X167.855 Y102.415 E35.49061
G1 X167.516 Y102.91 E35.52301
G1 X167.115 Y103.356 E35.5554
G1 X166.658 Y103.744 E35.58777
G1 X166.153 Y104.068 E35.62017
G1 X165.61 Y104.322 E35.65254
G1 X165.037 Y104.501 E35.68496
G1 X164.447 Y104.603 E35.71729
G1 X163.98 Y104.627 E35.74254
G1 X155.48 Y104.628 E36.20154
G1 X155.48 Y104.766 E36.209
G1 X155.553 Y104.753 E36.213
G1 X156.019 Y104.729 E36.2382
G1 X164.356 Y104.728 E36.68839
G1 X164.955 Y104.768 E36.72081
G1 X165.543 Y104.887 E36.75321
G1 X166.109 Y105.083 E36.78555
G1 X166.645 Y105.353 E36.81796
G1 X167.14 Y105.692 E36.85036
G1 X167.585 Y106.093 E36.88271
G1 X167.973 Y106.55 E36.91508
G1 X168.297 Y107.055 E36.94748
G1 X168.551 Y107.598 E36.97985
G1 X168.731 Y108.17 E37.01223
G1 X168.833 Y108.761 E37.04462
G1 X168.857 Y109.228 E37.06987
G1 X168.857 Y131.624 E38.27925
G1 X168.817 Y132.222 E38.31162
G1 X168.698 Y132.81 E38.34401
G1 X168.68 Y132.862 E38.34698
G1 X168.68 Y136.351 E38.53539
G1 X168.719 Y136.471 E38.5422
G1 X168.827 Y137.06 E38.57454
G1 X168.857 Y137.575 E38.6024
G1 X168.857 Y160.148 E39.82134
G1 X168.817 Y160.746 E39.8537
G1 X168.698 Y161.334 E39.8861
G1 X168.502 Y161.901 E39.9185
G1 X168.232 Y162.436 E39.95086
G1 X167.893 Y162.931 E39.98325
G1 X167.492 Y163.377 E40.01564
G1 X167.035 Y163.765 E40.04801
G1 X166.53 Y164.089 E40.08041
G1 X165.987 Y164.343 E40.11278
G1 X165.414 Y164.522 E40.1452
G1 X164.824 Y164.624 E40.17753
G1 X164.675 Y164.632 E40.18559
G1 X165.166 Y164.731 E40.21264
G1 X165.732 Y164.927 E40.24498
G1 X166.268 Y165.197 E40.27739
G1 X166.763 Y165.536 E40.30979
G1 X167.208 Y165.937 E40.34214
G1 X167.596 Y166.394 E40.37451
G1 X167.92 Y166.899 E40.40691
G1 X168.174 Y167.442 E40.43928
G1 X168.354 Y168.014 E40.47166
G1 X168.456 Y168.605 E40.50405
G1 X168.48 Y169.072 E40.5293
G1 X168.48 Y171.48 E40.65933
G1 X168.44 Y172.078 E40.6917
G1 X168.321 Y172.666 E40.72409
G1 X168.125 Y173.233 E40.75649
G1 X167.855 Y173.768 E40.78885
G1 X167.516 Y174.263 E40.82125
G1 X167.115 Y174.709 E40.85363
G1 X166.658 Y175.097 E40.88601
G1 X166.153 Y175.421 E40.91841
G1 X165.61 Y175.675 E40.95078
G1 X165.037 Y175.854 E40.98319
G1 X164.447 Y175.956 E41.01553
G1 X163.98 Y175.98 E41.04078
G1 X59.02 Y175.98 E46.70862
G1 X58.422 Y175.94 E46.74098
G1 X57.834 Y175.821 E46.77338
G1 X57.267 Y175.625 E46.80577
G1 X56.732 Y175.355 E46.83813
G1 X56.237 Y175.016 E46.87053
G1 X55.791 Y174.615 E46.90292
G1 X55.403 Y174.158 E46.93529
G1 X55.079 Y173.653 E46.96769
G1 X54.825 Y173.11 E47.00006
G1 X54.646 Y172.537 E47.03248
G1 X54.544 Y171.947 E47.06481
G1 X54.52 Y171.48 E47.09006
G1 X54.52 Y169.072 E47.2201
G1 X54.56 Y168.474 E47.25246
G1 X54.679 Y167.886 E47.28486
G1 X54.875 Y167.319 E47.31725
G1 X55.145 Y166.784 E47.34961
G1 X55.484 Y166.289 E47.38201
G1 X55.885 Y165.843 E47.4144
G1 X56.342 Y165.455 E47.44677
G1 X56.847 Y165.131 E47.47917
G1 X57.39 Y164.877 E47.51154
G1 X57.963 Y164.698 E47.54396
G1 X58.357 Y164.63 E47.56555
G1 X58.045 Y164.609 E47.58243
G1 X57.457 Y164.49 E47.61483
G1 X56.89 Y164.294 E47.64723
G1 X56.355 Y164.024 E47.67959
G1 X55.86 Y163.685 E47.71198
G1 X55.414 Y163.284 E47.74437
G1 X55.026 Y162.827 E47.77674
G1 X54.702 Y162.322 E47.80914
G1 X54.448 Y161.779 E47.84152
G1 X54.269 Y161.206 E47.87393
G1 X54.167 Y160.616 E47.90626
G1 X54.143 Y160.149 E47.93152
G1 X54.143 Y137.575 E49.15051
G1 X54.183 Y136.977 E49.18288
G1 X54.302 Y136.389 E49.21527
G1 X54.32 Y136.337 E49.21824
G1 X54.32 Y132.848 E49.40665
G1 X54.281 Y132.728 E49.41346
G1 X54.173 Y132.139 E49.4458
G1 X54.143 Y131.624 E49.47366
G1 X54.143 Y109.229 E50.68299
G1 X54.183 Y108.631 E50.71535
G1 X54.302 Y108.043 E50.74775
G1 X54.498 Y107.476 E50.78014
G1 X54.768 Y106.941 E50.8125
G1 X55.107 Y106.446 E50.8449
G1 X55.508 Y106 E50.87729
G1 X55.965 Y105.612 E50.90966
G1 X56.47 Y105.288 E50.94206
G1 X57.013 Y105.034 E50.97443
G1 X57.586 Y104.855 E51.00685
G1 X58.176 Y104.753 E51.03918
G1 X58.643 Y104.729 E51.06443
G1 X66.98 Y104.729 E51.51463
G1 X67.52 Y104.765 E51.54385
G1 X67.52 Y104.629 E51.5512
G1 X59.019 Y104.628 E52.01025
G1 X58.421 Y104.588 E52.04262
G1 X57.833 Y104.469 E52.07501
G1 X57.267 Y104.272 E52.10737
G1 X56.731 Y104.002 E52.13978
G1 X56.236 Y103.664 E52.17215
G1 X55.791 Y103.262 E52.20453
G1 X55.403 Y102.805 E52.23691
G1 X55.079 Y102.3 E52.26931
G1 X54.825 Y101.757 E52.30168
G1 X54.646 Y101.185 E52.33404
G1 X54.544 Y100.594 E52.36643
G1 X54.52 Y100.128 E52.39163
G1 X54.52 Y51.52 E55.01646
G1 X54.56 Y50.922 E55.04882
G1 X54.679 Y50.334 E55.08122
G1 X54.875 Y49.767 E55.11361
G1 X55.145 Y49.232 E55.14597
G1 X55.484 Y48.737 E55.17837
G1 X55.885 Y48.291 E55.21076
G0 F4500 X56.239 Y48.453
G1 F1800 X56.691 Y48.097 E55.24183
G1 X57.188 Y47.808 E55.27287
G1 X57.72 Y47.589 E55.30394
G1 X58.277 Y47.447 E55.33498
G1 X59.02 Y47.38 E55.37527
G1 X163.98 Y47.38 E61.04311
G1 X164.554 Y47.42 E61.07418
G1 X165.116 Y47.539 E61.1052
G1 X165.657 Y47.735 E61.13627
G1 X166.166 Y48.004 E61.16736
G1 X166.632 Y48.341 E61.19841
G1 X167.047 Y48.739 E61.22946
G1 X167.403 Y49.191 E61.26053
G1 X167.692 Y49.688 E61.29158
G1 X167.911 Y50.22 E61.32265
G1 X168.053 Y50.777 E61.35369
G1 X168.12 Y51.52 E61.39397
G1 X168.12 Y100.127 E64.01875
G1 X168.08 Y100.701 E64.04982
G1 X167.961 Y101.263 E64.08084
G1 X167.765 Y101.804 E64.11191
G1 X167.496 Y102.313 E64.143
G1 X167.159 Y102.779 E64.17406
G1 X166.761 Y103.194 E64.20511
G1 X166.309 Y103.55 E64.23618
G1 X165.812 Y103.839 E64.26722
G1 X165.28 Y104.058 E64.29829
G1 X164.723 Y104.2 E64.32933
G1 X163.98 Y104.267 E64.36961
G1 X155.12 Y104.268 E64.84805
G1 X155.12 Y105.196 E64.89816
G1 X155.277 Y105.156 E64.90691
G1 X156.02 Y105.089 E64.9472
G1 X164.357 Y105.088 E65.3974
G1 X164.93 Y105.128 E65.42841
G1 X165.493 Y105.247 E65.45949
G1 X166.034 Y105.443 E65.49056
G1 X166.542 Y105.712 E65.5216
G1 X167.008 Y106.048 E65.55262
G1 X167.423 Y106.447 E65.58371
G1 X167.779 Y106.898 E65.61474
G1 X168.069 Y107.395 E65.64581
G1 X168.287 Y107.927 E65.67686
G1 X168.43 Y108.485 E65.70796
G1 X168.497 Y109.228 E65.74825
G1 X168.497 Y131.624 E66.95763
G1 X168.457 Y132.198 E66.9887
G1 X168.338 Y132.76 E67.01972
G1 X168.32 Y132.81 E67.02259
G1 X168.32 Y136.409 E67.21694
G1 X168.382 Y136.605 E67.22804
G1 X168.477 Y137.172 E67.25908
G1 X168.497 Y137.575 E67.28087
G1 X168.497 Y160.148 E68.49982
G1 X168.457 Y160.722 E68.53089
G1 X168.338 Y161.284 E68.56191
G1 X168.142 Y161.825 E68.59298
G1 X167.873 Y162.334 E68.62407
G1 X167.536 Y162.8 E68.65512
G1 X167.138 Y163.215 E68.68617
G1 X166.686 Y163.571 E68.71724
G1 X166.189 Y163.86 E68.74829
G1 X165.657 Y164.079 E68.77935
G1 X165.1 Y164.221 E68.81039
G1 X164.357 Y164.288 E68.85068
G1 X156.02 Y164.289 E69.30088
G1 X155.447 Y164.249 E69.33189
G1 X155.12 Y164.18 E69.34994
G1 X155.12 Y164.933 E69.3906
G1 X163.98 Y164.932 E69.86904
G1 X164.553 Y164.972 E69.90006
G1 X165.116 Y165.091 E69.93113
G1 X165.657 Y165.287 E69.96221
G1 X166.165 Y165.556 E69.99325
G1 X166.632 Y165.893 E70.02435
G1 X167.047 Y166.291 E70.0554
G1 X167.402 Y166.743 E70.08643
G1 X167.692 Y167.239 E70.11746
G1 X167.91 Y167.772 E70.14855
G1 X168.053 Y168.329 E70.17961
G1 X168.12 Y169.072 E70.21989
G1 X168.12 Y171.48 E70.34992
G1 X168.08 Y172.054 E70.381
G1 X167.961 Y172.616 E70.41202
G1 X167.765 Y173.157 E70.44309
G1 X167.496 Y173.666 E70.47418
G1 X167.159 Y174.132 E70.50523
G1 X166.761 Y174.547 E70.53628
G1 X166.309 Y174.903 E70.56735
G1 X165.812 Y175.192 E70.5984
G1 X165.28 Y175.411 E70.62946
G1 X164.723 Y175.553 E70.6605
G1 X163.98 Y175.62 E70.70079
G1 X59.02 Y175.62 E76.36863
G1 X58.446 Y175.58 E76.3997
G1 X57.884 Y175.461 E76.43072
G1 X57.343 Y175.265 E76.46179
G1 X56.834 Y174.996 E76.49288
G1 X56.368 Y174.659 E76.52394
G1 X55.953 Y174.261 E76.55499
G1 X55.597 Y173.809 E76.58606
G1 X55.308 Y173.312 E76.6171
G1 X55.089 Y172.78 E76.64817
G1 X54.947 Y172.223 E76.67921
G1 X54.88 Y171.48 E76.71949
G1 X54.88 Y169.072 E76.84953
G1 X54.92 Y168.498 E76.8806
G1 X55.039 Y167.936 E76.91162
G1 X55.235 Y167.395 E76.94269
G1 X55.504 Y166.886 E76.97378
G1 X55.841 Y166.42 E77.00483
G1 X56.239 Y166.005 E77.03588
G1 X56.691 Y165.649 E77.06695
G1 X57.188 Y165.36 E77.098
G1 X57.72 Y165.141 E77.12906
G1 X58.277 Y164.999 E77.1601
G1 X59.02 Y164.932 E77.20039
G1 X67.88 Y164.932 E77.67883
G1 X67.88 Y164.182 E77.71933
G1 X67.723 Y164.222 E77.72808
G1 X66.98 Y164.289 E77.76836
G1 X58.643 Y164.289 E78.21856
G1 X58.069 Y164.249 E78.24963
G1 X57.507 Y164.13 E78.28065
G1 X56.966 Y163.934 E78.31173
G1 X56.457 Y163.665 E78.34281
G1 X55.991 Y163.328 E78.37387
G1 X55.576 Y162.93 E78.40492
G1 X55.22 Y162.478 E78.43599
G1 X54.931 Y161.981 E78.46703
G1 X54.712 Y161.449 E78.4981
G1 X54.57 Y160.892 E78.52914
G1 X54.503 Y160.149 E78.56943
G1 X54.503 Y137.575 E79.78842
G1 X54.543 Y137.001 E79.81949
G1 X54.662 Y136.439 E79.85051
G1 X54.68 Y136.389 E79.85338
G1 X54.68 Y132.79 E80.04773
G1 X54.618 Y132.594 E80.05883
G1 X54.523 Y132.027 E80.08987
G1 X54.503 Y131.624 E80.11166
G1 X54.503 Y109.229 E81.32099
G1 X54.543 Y108.655 E81.35206
G1 X54.662 Y108.093 E81.38309
G1 X54.858 Y107.552 E81.41416
G1 X55.127 Y107.043 E81.44525
G1 X55.464 Y106.577 E81.4763
G1 X55.862 Y106.162 E81.50735
G1 X56.314 Y105.806 E81.53842
G1 X56.811 Y105.517 E81.56947
G1 X57.343 Y105.298 E81.60053
G1 X57.9 Y105.156 E81.63157
G1 X58.643 Y105.089 E81.67186
G1 X66.98 Y105.089 E82.12206
G1 X67.554 Y105.129 E82.15313
G1 X67.88 Y105.198 E82.17112
G1 X67.88 Y104.269 E82.22129
G1 X59.019 Y104.268 E82.69978
G1 X58.446 Y104.228 E82.7308
G1 X57.883 Y104.109 E82.76187
G1 X57.342 Y103.913 E82.79294
G1 X56.834 Y103.644 E82.82398
G1 X56.368 Y103.307 E82.85504
G1 X55.953 Y102.909 E82.88609
G1 X55.597 Y102.457 E82.91716
G1 X55.307 Y101.96 E82.94823
G1 X55.089 Y101.428 E82.97928
G1 X54.947 Y100.87 E83.01037
G1 X54.88 Y100.128 E83.0506
G1 X54.88 Y51.52 E85.67543
G1 X54.92 Y50.946 E85.7065
G1 X55.039 Y50.384 E85.73753
G1 X55.235 Y49.843 E85.7686
G1 X55.504 Y49.334 E85.79969
G1 X55.841 Y48.868 E85.83074
G1 X56.239 Y48.453 E85.86179
G0 F4500 X56.591 Y48.623
G1 F1800 X57.037 Y48.302 E85.89146
G1 X57.525 Y48.048 E85.92117
G1 X58.044 Y47.868 E85.95084
G1 X58.584 Y47.765 E85.98052
G1 X59.02 Y47.74 E86.0041
G1 X163.98 Y47.74 E91.67194
G1 X164.528 Y47.78 E91.70161
G1 X165.065 Y47.899 E91.73132
G1 X165.578 Y48.094 E91.76095
G1 X166.058 Y48.362 E91.79064
G1 X166.494 Y48.697 E91.82033
G1 X166.877 Y49.091 E91.85
G1 X167.198 Y49.537 E91.87967
G1 X167.452 Y50.025 E91.90938
G1 X167.632 Y50.544 E91.93905
G1 X167.735 Y51.084 E91.96873
G1 X167.76 Y51.52 E91.99231
G1 X167.76 Y100.127 E94.61709
G1 X167.72 Y100.675 E94.64676
G1 X167.601 Y101.212 E94.67646
G1 X167.406 Y101.725 E94.7061
G1 X167.138 Y102.205 E94.73579
G1 X166.803 Y102.641 E94.76548
G1 X166.409 Y103.024 E94.79515
G1 X165.963 Y103.345 E94.82482
G1 X165.475 Y103.599 E94.85453
G1 X164.956 Y103.779 E94.8842
