;FLAVOR:UltiGCode
;TIME:493
;MATERIAL:440
;MATERIAL2:0
;NOZZLE_DIAMETER:0.4
;Generated with Cura_SteamEngine 2.3.0

;LAYER_COUNT:19
;LAYER:0
M107
G10
G0 F4500 X104.567 Y104.948 Z.15
;TYPE:SKIRT
G11
G1 F1800 X104.963 Y104.555 E0.03013
G1 X105.411 Y104.221 E0.0603
G1 X105.902 Y103.956 E0.09043
G1 X106.426 Y103.763 E0.12059
G1 X106.972 Y103.646 E0.15074
G1 X107.509 Y103.609 E0.17981
G1 X115.491 Y103.61 E0.61083
G1 X116.048 Y103.65 E0.64099
G1 X116.594 Y103.769 E0.67117
G1 X117.116 Y103.965 E0.70128
G1 X117.606 Y104.233 E0.73143
G1 X118.052 Y104.569 E0.76159
G1 X118.446 Y104.964 E0.79172
G1 X118.779 Y105.412 E0.82186
G1 X119.045 Y105.903 E0.85201
G1 X119.238 Y106.427 E0.88217
G1 X119.354 Y106.973 E0.91231
G1 X119.391 Y107.51 E0.94138
G1 X119.391 Y145.19 E2.9761
G1 X119.351 Y145.747 E3.00625
G1 X119.232 Y146.292 E3.03637
G1 X119.036 Y146.815 E3.06654
G1 X118.768 Y147.304 E3.09665
G1 X118.433 Y147.751 E3.12681
G1 X118.037 Y148.144 E3.15694
G1 X117.589 Y148.478 E3.18711
G1 X117.098 Y148.743 E3.21724
G1 X116.574 Y148.936 E3.2474
G1 X116.028 Y149.053 E3.27755
G1 X115.491 Y149.09 E3.30662
G1 X107.509 Y149.09 E3.73765
G1 X106.952 Y149.05 E3.7678
G1 X106.407 Y148.931 E3.79792
G1 X105.884 Y148.735 E3.82808
G1 X105.395 Y148.467 E3.8582
G1 X104.948 Y148.132 E3.88836
G1 X104.555 Y147.736 E3.91849
G1 X104.221 Y147.288 E3.94866
G1 X103.956 Y146.797 E3.97879
G1 X103.763 Y146.273 E4.00895
G1 X103.646 Y145.727 E4.0391
G1 X103.609 Y145.19 E4.06817
G1 X103.609 Y107.509 E6.10294
G1 X103.649 Y106.952 E6.1331
G1 X103.768 Y106.407 E6.16322
G1 X103.964 Y105.884 E6.19338
G1 X104.232 Y105.395 E6.22349
G1 X104.567 Y104.948 E6.25366
G0 F4500 X104.923 Y105.091
G1 F1800 X105.315 Y104.731 E6.2824
G1 X105.755 Y104.434 E6.31106
G1 X106.236 Y104.206 E6.33981
G1 X106.745 Y104.052 E6.36852
G1 X107.509 Y103.969 E6.41002
G1 X115.491 Y103.97 E6.84105
G1 X116.022 Y104.01 E6.8698
G1 X116.54 Y104.129 E6.89851
G1 X117.035 Y104.324 E6.92723
G1 X117.494 Y104.591 E6.95591
G1 X117.909 Y104.925 E6.98468
G1 X118.269 Y105.316 E7.01338
G1 X118.566 Y105.757 E7.04209
G1 X118.794 Y106.237 E7.07078
G1 X118.948 Y106.746 E7.0995
G1 X119.031 Y107.51 E7.141
G1 X119.031 Y145.19 E9.17572
G1 X118.991 Y145.72 E9.20442
G1 X118.872 Y146.239 E9.23317
G1 X118.677 Y146.733 E9.26185
G1 X118.41 Y147.193 E9.29057
G1 X118.077 Y147.608 E9.31931
G1 X117.685 Y147.968 E9.34805
G1 X117.245 Y148.265 E9.37671
G1 X116.764 Y148.493 E9.40546
G1 X116.255 Y148.647 E9.43417
G1 X115.491 Y148.73 E9.47567
G1 X107.509 Y148.73 E9.9067
G1 X106.979 Y148.69 E9.9354
G1 X106.46 Y148.571 E9.96415
G1 X105.966 Y148.376 E9.99283
G1 X105.506 Y148.109 E10.02155
G1 X105.091 Y147.776 E10.05029
G1 X104.731 Y147.384 E10.07903
G1 X104.434 Y146.944 E10.10769
G1 X104.206 Y146.463 E10.13644
G1 X104.052 Y145.954 E10.16515
G1 X103.969 Y145.19 E10.20665
G1 X103.969 Y107.509 E12.24143
G1 X104.009 Y106.979 E12.27013
G1 X104.128 Y106.46 E12.29888
G1 X104.323 Y105.966 E12.32756
G1 X104.59 Y105.506 E12.35628
G1 X104.923 Y105.091 E12.38501
G0 F4500 X105.278 Y105.243
G1 F1800 X105.664 Y104.919 E12.41223
G1 X106.097 Y104.66 E12.43947
G1 X106.564 Y104.473 E12.46664
G1 X107.056 Y104.361 E12.49389
G1 X107.509 Y104.329 E12.51841
G1 X115.491 Y104.33 E12.94944
G1 X115.994 Y104.37 E12.97668
G1 X116.484 Y104.489 E13.00391
G1 X116.948 Y104.684 E13.03109
G1 X117.377 Y104.949 E13.05832
G1 X117.757 Y105.279 E13.0855
G1 X118.081 Y105.666 E13.11275
G1 X118.34 Y106.098 E13.13995
G1 X118.528 Y106.566 E13.16719
G1 X118.639 Y107.057 E13.19437
G1 X118.671 Y107.51 E13.21889
G1 X118.671 Y145.19 E15.25361
G1 X118.631 Y145.692 E15.28081
G1 X118.512 Y146.182 E15.30804
G1 X118.318 Y146.647 E15.33525
G1 X118.052 Y147.075 E15.36246
G1 X117.722 Y147.456 E15.38968
G1 X117.336 Y147.78 E15.41689
G1 X116.903 Y148.039 E15.44413
G1 X116.436 Y148.226 E15.4713
G1 X115.944 Y148.338 E15.49855
G1 X115.491 Y148.37 E15.52307
G1 X107.509 Y148.37 E15.9541
G1 X107.007 Y148.33 E15.98129
G1 X106.517 Y148.211 E16.00852
G1 X106.052 Y148.017 E16.03573
G1 X105.624 Y147.751 E16.06294
G1 X105.243 Y147.421 E16.09016
G1 X104.919 Y147.035 E16.11737
G1 X104.66 Y146.602 E16.14462
G1 X104.473 Y146.135 E16.17178
G1 X104.361 Y145.643 E16.19903
G1 X104.329 Y145.19 E16.22355
G1 X104.329 Y107.509 E18.25833
G1 X104.369 Y107.007 E18.28552
G1 X104.488 Y106.517 E18.31275
G1 X104.682 Y106.052 E18.33996
G1 X104.948 Y105.624 E18.36717
G1 X105.278 Y105.243 E18.39439
G10
G0 F4500 X106.836 Y116.164
G0 X108.068 Y116.723
G0 X108.068 Y117.967
G0 X108.4 Y118.299
;TYPE:WALL-INNER
G11
G1 F1800 X114.6 Y118.299 E18.72919
G1 X114.6 Y124.499 E19.06399
G1 X108.4 Y124.499 E19.39879
G1 X108.4 Y118.299 E19.73359
G0 F4500 X109.904 Y119.468
G1 F1800 X109.473 Y119.924 E19.76747
G1 X109.17 Y120.478 E19.80157
G1 X109.013 Y121.085 E19.83543
G1 X109.013 Y121.714 E19.86939
G1 X109.17 Y122.321 E19.90325
G1 X109.473 Y122.875 E19.93735
G1 X109.904 Y123.331 E19.97123
G1 X110.432 Y123.667 E20.00502
G1 X111.031 Y123.862 E20.03904
G1 X111.657 Y123.901 E20.07291
G1 X112.274 Y123.784 E20.10682
G1 X112.843 Y123.515 E20.14081
G1 X113.327 Y123.117 E20.17465
G1 X113.698 Y122.606 E20.20875
G1 X113.927 Y122.022 E20.24262
G1 X114.008 Y121.399 E20.27655
G1 X113.927 Y120.777 E20.31042
G1 X113.698 Y120.193 E20.34429
G1 X113.327 Y119.682 E20.37839
G1 X112.843 Y119.284 E20.41223
G1 X112.274 Y119.015 E20.44622
G1 X111.657 Y118.898 E20.48013
G1 X111.031 Y118.937 E20.514
G1 X110.432 Y119.132 E20.54801
G1 X109.904 Y119.468 E20.58181
G0 F4500 X110.135 Y119.748
G1 F1800 X109.766 Y120.138 E20.6108
G1 X109.507 Y120.611 E20.63992
G1 X109.373 Y121.131 E20.66892
G1 X109.373 Y121.668 E20.69792
G1 X109.507 Y122.188 E20.72692
G1 X109.766 Y122.661 E20.75604
G1 X110.135 Y123.051 E20.78503
G1 X110.587 Y123.339 E20.81397
G1 X111.099 Y123.506 E20.84305
G1 X111.634 Y123.539 E20.872
G1 X112.162 Y123.439 E20.90102
G1 X112.649 Y123.209 E20.9301
G1 X113.063 Y122.868 E20.95906
G1 X113.38 Y122.432 E20.98817
G1 X113.576 Y121.932 E21.01717
G1 X113.645 Y121.399 E21.04619
G1 X113.576 Y120.867 E21.07516
G1 X113.38 Y120.367 E21.10416
G1 X113.063 Y119.931 E21.13327
G1 X112.649 Y119.59 E21.16223
G1 X112.162 Y119.36 E21.19132
G1 X111.634 Y119.26 E21.22034
G1 X111.099 Y119.293 E21.24928
G1 X110.587 Y119.46 E21.27836
G1 X110.135 Y119.748 E21.3073
G0 F4500 X110.072 Y119.671
G0 X108.11 Y118.009
G0 X108.04 Y117.939
G1 F1800 X114.96 Y117.939 E21.68098
G1 X114.96 Y124.859 E22.05466
G1 X108.04 Y124.859 E22.42834
G1 X108.04 Y117.939 E22.80202
G0 F4500 X108.11 Y118.009
G0 X108.11 Y124.789
G0 X107.7 Y125.199
;TYPE:WALL-OUTER
G1 F1800 X107.7 Y117.599 E23.21242
G1 X115.3 Y117.599 E23.62282
G1 X115.3 Y125.199 E24.03322
G1 X107.7 Y125.199 E24.44362
G0 F4500 X108.11 Y124.789
G0 X109.47 Y120.597
G0 X109.734 Y120.115
G0 X110.11 Y119.718
G0 X110.57 Y119.424
G0 X111.092 Y119.254
G0 X111.636 Y119.221
G0 X112.243 Y119.289
G0 X112.056 Y119.686
G1 F1800 X111.613 Y119.602 E24.46797
G1 X111.163 Y119.63 E24.49232
G1 X110.733 Y119.77 E24.51674
G1 X110.353 Y120.012 E24.54107
G1 X110.043 Y120.34 E24.56544
G1 X109.826 Y120.737 E24.58987
G1 X109.713 Y121.174 E24.61424
G1 X109.713 Y121.625 E24.6386
G1 X109.826 Y122.062 E24.66297
G1 X110.043 Y122.459 E24.6874
G1 X110.353 Y122.787 E24.71177
G1 X110.733 Y123.029 E24.7361
G1 X111.163 Y123.169 E24.76052
G1 X111.613 Y123.197 E24.78487
G1 X112.056 Y123.113 E24.80922
G1 X112.465 Y122.92 E24.83364
G1 X112.813 Y122.633 E24.858
G1 X113.079 Y122.267 E24.88243
G1 X113.244 Y121.847 E24.9068
G1 X113.302 Y121.399 E24.93119
G1 X113.244 Y120.952 E24.95553
G1 X113.079 Y120.532 E24.9799
G1 X112.813 Y120.166 E25.00433
G1 X112.465 Y119.879 E25.02869
G1 X112.056 Y119.686 E25.05311
G0 F4500 X112.243 Y119.289
G0 X112.22 Y118.839
G0 X112.03 Y118.649
G1 F1800 X111.47 Y118.598 E25.07816
G1 X110.977 Y118.613 E25.10036
G1 X110.517 Y118.663 E25.12763
G1 X110.073 Y118.728 E25.16365
;TYPE:SKIN
G0 X110.404 Y119.059
G0 F4500 X110.03 Y119.194
G1 F1800 X109.296 Y118.46 E25.2197
G0 X109.233 Y118.397
G0 F4500 X108.786 Y118.46
G1 F1800 X109.735 Y119.409 E25.29217
G0 X109.798 Y119.472
G0 F4500 X109.488 Y119.67
G1 F1800 X108.562 Y118.744 E25.36289
G0 X108.499 Y118.681
G0 F4500 X108.562 Y119.253
G1 F1800 X109.268 Y119.959 E25.4168
G0 X109.331 Y120.022
G0 F4500 X109.088 Y120.289
G1 F1800 X108.562 Y119.762 E25.45701
G0 X108.499 Y119.699
G0 F4500 X108.758 Y120.467
G1 F1800 X108.706 Y120.925 E25.48308
G1 X108.706 Y121.434 E25.50514
G1 X108.767 Y122.004 E25.5318
G0 F4500 X108.562 Y122.308
G1 F1800 X110.59 Y124.336 E25.68667
G0 X110.653 Y124.399
G0 F4500 X110.889 Y124.126
G1 F1800 X111.46 Y124.188 E25.7139
G1 X111.966 Y124.185 E25.73659
G1 X112.435 Y124.145 E25.76264
G1 X112.87 Y124.071 E25.79746
G0 X112.543 Y123.743
G0 F4500 X112.947 Y123.639
G1 F1800 X113.644 Y124.336 E25.85069
G0 X113.707 Y124.399
G0 F4500 X114.153 Y124.336
G1 F1800 X113.226 Y123.409 E25.92148
G0 X113.163 Y123.346
G0 F4500 X113.49 Y123.163
G1 F1800 X114.438 Y124.111 E25.99388
G0 X114.501 Y124.174
G0 F4500 X114.438 Y123.602
G1 F1800 X113.704 Y122.868 E26.04993
G0 X113.641 Y122.805
G0 F4500 X113.893 Y122.548
G1 F1800 X114.438 Y123.093 E26.09155
G0 X114.501 Y123.156
G0 F4500 X114.237 Y122.383
G1 F1800 X114.281 Y121.917 E26.11886
G1 X114.297 Y121.424 E26.14158
G1 X114.25 Y120.868 E26.1666
G0 F4500 X114.438 Y120.547
G1 F1800 X112.35 Y118.46 E26.32602
G0 X112.287 Y118.397
G0 F4500 X112.859 Y118.46
G1 F1800 X114.438 Y120.038 E26.44657
G0 X114.501 Y120.101
G0 F4500 X114.438 Y119.529
G1 F1800 X113.369 Y118.46 E26.5282
G0 X113.306 Y118.397
G0 F4500 X113.878 Y118.46
G1 F1800 X114.438 Y119.02 E26.57097
G0 X114.501 Y119.083
G0 F4500 X114.438 Y118.511
G1 F1800 X114.387 Y118.46 E26.57486
G0 F4500 X110.57 Y119.424
G0 X110.11 Y119.718
G0 X109.734 Y120.115
G0 X109.47 Y120.597
G0 X108.562 Y122.817
G1 F1800 X110.08 Y124.336 E26.69083
G0 X110.143 Y124.399
G0 F4500 X109.571 Y124.336
G1 F1800 X108.562 Y123.326 E26.76792
G0 X108.499 Y123.263
G0 F4500 X108.562 Y123.835
G1 F1800 X109.062 Y124.336 E26.80614
G10
G0 F4500 X108.4 Y124.819
G0 X108.4 Y126.075
G0 X108.4 Y126.623
G0 X108.4 Y127.879
G0 X108.4 Y128.199
;TYPE:WALL-INNER
G11
G1 F1800 X114.6 Y128.199 E27.14094
G1 X114.6 Y134.399 E27.47574
G1 X108.4 Y134.399 E27.81054
G1 X108.4 Y128.199 E28.14534
G0 F4500 X109.904 Y129.368
G1 F1800 X109.473 Y129.824 E28.17923
G1 X109.17 Y130.378 E28.21332
G1 X109.013 Y130.985 E28.24718
G1 X109.013 Y131.614 E28.28115
G1 X109.17 Y132.221 E28.315
G1 X109.473 Y132.775 E28.3491
G1 X109.904 Y133.231 E28.38298
G1 X110.432 Y133.567 E28.41678
G1 X111.031 Y133.762 E28.4508
G1 X111.657 Y133.801 E28.48467
G1 X112.274 Y133.684 E28.51858
G1 X112.843 Y133.415 E28.55256
G1 X113.327 Y133.017 E28.5864
G1 X113.698 Y132.506 E28.6205
G1 X113.927 Y131.922 E28.65437
G1 X114.008 Y131.299 E28.6883
G1 X113.927 Y130.677 E28.72217
G1 X113.698 Y130.093 E28.75605
G1 X113.327 Y129.582 E28.79015
G1 X112.843 Y129.184 E28.82398
G1 X112.274 Y128.915 E28.85797
G1 X111.657 Y128.798 E28.89188
G1 X111.031 Y128.837 E28.92575
G1 X110.432 Y129.032 E28.95977
G1 X109.904 Y129.368 E28.99356
G0 F4500 X110.135 Y129.648
G1 F1800 X109.766 Y130.038 E29.02256
G1 X109.507 Y130.511 E29.05168
G1 X109.373 Y131.031 E29.08067
G1 X109.373 Y131.568 E29.10967
G1 X109.507 Y132.088 E29.13867
G1 X109.766 Y132.561 E29.16779
G1 X110.135 Y132.951 E29.19678
G1 X110.587 Y133.239 E29.22572
G1 X111.099 Y133.406 E29.25481
G1 X111.634 Y133.439 E29.28375
G1 X112.162 Y133.339 E29.31277
G1 X112.649 Y133.109 E29.34185
G1 X113.063 Y132.768 E29.37082
G1 X113.38 Y132.332 E29.39992
G1 X113.576 Y131.832 E29.42892
G1 X113.645 Y131.299 E29.45795
G1 X113.576 Y130.767 E29.48692
G1 X113.38 Y130.267 E29.51592
G1 X113.063 Y129.831 E29.54503
G1 X112.649 Y129.49 E29.57399
G1 X112.162 Y129.26 E29.60307
G1 X111.634 Y129.16 E29.63209
G1 X111.099 Y129.193 E29.66104
G1 X110.587 Y129.36 E29.69012
G1 X110.135 Y129.648 E29.71906
G0 F4500 X110.072 Y129.571
G0 X108.11 Y127.909
G0 X108.04 Y127.839
G1 F1800 X114.96 Y127.839 E30.09274
G1 X114.96 Y134.759 E30.46642
G1 X108.04 Y134.759 E30.8401
G1 X108.04 Y127.839 E31.21378
G0 F4500 X107.7 Y127.499
;TYPE:WALL-OUTER
G1 F1800 X115.3 Y127.499 E31.62418
G1 X115.3 Y135.099 E32.03458
G1 X107.7 Y135.099 E32.44498
G1 X107.7 Y127.499 E32.85538
G0 F4500 X108.11 Y127.909
G0 X112.653 Y129.382
G0 X112.465 Y129.779
G1 F1800 X112.056 Y129.586 E32.8798
G1 X111.613 Y129.502 E32.90415
G1 X111.163 Y129.53 E32.9285
G1 X110.733 Y129.67 E32.95292
G1 X110.353 Y129.912 E32.97724
G1 X110.043 Y130.24 E33.00161
G1 X109.826 Y130.637 E33.02605
G1 X109.713 Y131.074 E33.05042
G1 X109.713 Y131.525 E33.07477
G1 X109.826 Y131.962 E33.09915
G1 X110.043 Y132.359 E33.12358
G1 X110.353 Y132.687 E33.14795
G1 X110.733 Y132.929 E33.17228
G1 X111.163 Y133.069 E33.1967
G1 X111.613 Y133.097 E33.22104
G1 X112.056 Y133.013 E33.24539
G1 X112.465 Y132.82 E33.26981
G1 X112.813 Y132.533 E33.29417
G1 X113.079 Y132.167 E33.31861
G1 X113.244 Y131.747 E33.34297
G1 X113.302 Y131.299 E33.36737
G1 X113.244 Y130.852 E33.39171
G1 X113.079 Y130.432 E33.41607
G1 X112.813 Y130.066 E33.44051
G1 X112.465 Y129.779 E33.46486
G0 F4500 X112.653 Y129.382
G0 X112.594 Y128.886
;TYPE:SKIN
G1 F1800 X112.068 Y128.36 E33.50503
G0 X112.005 Y128.297
G0 F4500 X111.715 Y128.516
G1 F1800 X111.196 Y128.506 E33.52808
G1 X110.716 Y128.535 E33.55268
G1 X110.27 Y128.598 E33.58423
G0 F4500 X109.523 Y128.36
G1 F1800 X110.169 Y129.006 E33.63356
G0 X110.232 Y129.069
G0 F4500 X109.858 Y129.204
G1 F1800 X109.013 Y128.36 E33.69806
G0 X108.95 Y128.297
G0 F4500 X108.561 Y128.416
G1 F1800 X109.598 Y129.454 E33.77729
G0 X109.661 Y129.517
G0 F4500 X109.351 Y129.715
G1 F1800 X108.561 Y128.926 E33.83758
G0 X108.498 Y128.863
G0 F4500 X108.561 Y129.435
G1 F1800 X109.168 Y130.042 E33.88394
G0 X109.231 Y130.105
G0 F4500 X108.78 Y130.163
G1 F1800 X108.728 Y130.62 E33.91353
G1 X108.706 Y131.107 E33.93737
G1 X108.727 Y131.637 E33.96108
G1 X108.885 Y132.304 E33.99851
G0 X109.272 Y132.691
G0 F4500 X108.561 Y132.489
G1 F1800 X110.307 Y134.235 E34.13185
G0 X110.37 Y134.298
G0 F4500 X109.798 Y134.235
G1 F1800 X108.561 Y132.999 E34.22627
G0 X108.498 Y132.936
G0 F4500 X108.561 Y133.508
G1 F1800 X109.289 Y134.235 E34.28183
G0 X109.352 Y134.298
G0 F4500 X108.779 Y134.235
G1 F1800 X108.561 Y134.017 E34.29848
G0 F4500 X110.176 Y133.595
G1 F1800 X110.816 Y134.235 E34.34735
G0 X110.879 Y134.298
G0 F4500 X111.168 Y134.079
G1 F1800 X111.694 Y134.096 E34.36985
G1 X112.175 Y134.067 E34.39334
G1 X112.632 Y134.015 E34.42294
G0 F4500 X113.361 Y134.235
G1 F1800 X112.759 Y133.633 E34.46892
G0 X112.696 Y133.57
G0 F4500 X113.072 Y133.436
G1 F1800 X113.871 Y134.235 E34.52993
G0 X113.934 Y134.298
G0 F4500 X114.38 Y134.235
G1 F1800 X113.351 Y133.206 E34.60851
G0 X113.288 Y133.143
G0 F4500 X113.586 Y132.932
G1 F1800 X114.437 Y133.783 E34.6735
G0 X114.5 Y133.846
G0 F4500 X114.437 Y133.274
G1 F1800 X113.8 Y132.637 E34.72215
G0 X113.737 Y132.574
G0 F4500 X114.197 Y132.525
G1 F1800 X114.264 Y132.083 E34.75367
G1 X114.293 Y131.603 E34.77783
G1 X114.279 Y131.08 E34.80075
G1 X114.177 Y130.469 E34.83252
G0 X113.854 Y130.146
G0 F4500 X114.437 Y130.22
G1 F1800 X112.577 Y128.36 E34.97457
G0 X112.514 Y128.297
G0 F4500 X113.086 Y128.36
G1 F1800 X114.437 Y129.71 E35.0777
G0 X114.5 Y129.773
G0 F4500 X114.437 Y129.201
G1 F1800 X113.595 Y128.36 E35.14197
G0 X113.532 Y128.297
G0 F4500 X114.105 Y128.36
G1 F1800 X114.437 Y128.692 E35.16732
G10
G0 F4500 X114.6 Y134.719
G0 X114.6 Y135.975
G0 X114.6 Y136.523
G0 X114.6 Y137.779
G0 X114.6 Y138.099
;TYPE:WALL-INNER
G11
G1 F1800 X114.6 Y144.299 E35.50212
G1 X108.4 Y144.299 E35.83692
G1 X108.4 Y138.099 E36.17172
G1 X114.6 Y138.099 E36.50652
G0 F4500 X113.327 Y139.482
G1 F1800 X112.843 Y139.084 E36.54036
G1 X112.274 Y138.815 E36.57434
G1 X111.657 Y138.698 E36.60826
G1 X111.031 Y138.737 E36.64213
G1 X110.432 Y138.932 E36.67614
G1 X109.904 Y139.268 E36.70994
G1 X109.473 Y139.724 E36.74382
G1 X109.17 Y140.278 E36.77792
G1 X109.013 Y140.885 E36.81178
G1 X109.013 Y141.514 E36.84574
G1 X109.17 Y142.121 E36.8796
G1 X109.473 Y142.675 E36.9137
G1 X109.904 Y143.131 E36.94758
G1 X110.432 Y143.467 E36.98137
G1 X111.031 Y143.662 E37.01539
G1 X111.657 Y143.701 E37.04926
G1 X112.274 Y143.584 E37.08317
G1 X112.843 Y143.315 E37.11716
