;FLAVOR:UltiGCode
;TIME:297
;MATERIAL:419
;MATERIAL2:0
;NOZZLE_DIAMETER:0.4
;Generated with Cura_SteamEngine 2.3.0

;LAYER_COUNT:16
;LAYER:0
M107
G10
G0 F4500 X103.559 Y98.958 Z.15
;TYPE:SKIRT
G11
G1 F1800 X103.953 Y98.563 E0.03013
G1 X104.4 Y98.229 E0.06026
G1 X104.89 Y97.961 E0.09042
G1 X105.413 Y97.766 E0.12056
G1 X105.958 Y97.648 E0.15067
G1 X106.509 Y97.609 E0.1805
G1 X116.491 Y97.61 E0.71953
G1 X117.048 Y97.65 E0.74968
G1 X117.594 Y97.769 E0.77986
G1 X118.116 Y97.965 E0.80997
G1 X118.606 Y98.233 E0.84013
G1 X119.052 Y98.569 E0.87028
G1 X119.446 Y98.964 E0.90041
G1 X119.779 Y99.412 E0.93055
G1 X120.045 Y99.903 E0.96071
G1 X120.238 Y100.427 E0.99086
G1 X120.354 Y100.973 E1.021
G1 X120.391 Y101.526 E1.05093
G1 X120.34 Y113.61 E1.70347
G1 X120.391 Y128.578 E2.51175
G1 X120.353 Y129.135 E2.5419
G1 X120.236 Y129.68 E2.572
G1 X120.042 Y130.204 E2.60217
G1 X119.775 Y130.694 E2.6323
G1 X119.441 Y131.142 E2.66248
G1 X119.047 Y131.537 E2.69261
G1 X118.6 Y131.871 E2.72274
G1 X118.11 Y132.139 E2.7529
G1 X117.587 Y132.334 E2.78304
G1 X117.042 Y132.452 E2.81315
G1 X116.491 Y132.491 E2.84298
G1 X106.509 Y132.491 E3.38201
G1 X105.952 Y132.451 E3.41216
G1 X105.407 Y132.332 E3.44229
G1 X104.884 Y132.136 E3.47245
G1 X104.395 Y131.868 E3.50256
G1 X103.948 Y131.533 E3.53272
G1 X103.555 Y131.137 E3.56285
G1 X103.221 Y130.689 E3.59303
G1 X102.956 Y130.198 E3.62315
G1 X102.763 Y129.674 E3.65331
G1 X102.646 Y129.128 E3.68346
G1 X102.609 Y128.575 E3.71339
G1 X102.66 Y116.49 E4.36599
G1 X102.609 Y101.522 E5.17426
G1 X102.647 Y100.965 E5.20441
G1 X102.764 Y100.42 E5.23451
G1 X102.958 Y99.896 E5.26469
G1 X103.225 Y99.406 E5.29482
G1 X103.559 Y98.958 E5.32499
G0 F4500 X103.915 Y99.1
G1 F1800 X104.305 Y98.739 E5.35369
G1 X104.745 Y98.44 E5.38242
G1 X105.225 Y98.21 E5.41116
G1 X105.733 Y98.055 E5.43984
G1 X106.509 Y97.969 E5.482
G1 X116.491 Y97.97 E6.02103
G1 X117.022 Y98.01 E6.04978
G1 X117.54 Y98.129 E6.07848
G1 X118.035 Y98.324 E6.10721
G1 X118.494 Y98.591 E6.13589
G1 X118.909 Y98.924 E6.16462
G1 X119.269 Y99.316 E6.19336
G1 X119.566 Y99.757 E6.22207
G1 X119.794 Y100.237 E6.25077
G1 X119.948 Y100.746 E6.27948
G1 X120.031 Y101.525 E6.32179
G1 X119.98 Y113.609 E6.97433
G1 X120.031 Y128.579 E7.78271
G1 X119.993 Y129.109 E7.81141
G1 X119.876 Y129.628 E7.84014
G1 X119.682 Y130.123 E7.86885
G1 X119.417 Y130.584 E7.89756
G1 X119.085 Y131 E7.9263
G1 X118.695 Y131.361 E7.955
G1 X118.255 Y131.66 E7.98373
G1 X117.775 Y131.89 E8.01247
G1 X117.267 Y132.045 E8.04115
G1 X116.491 Y132.131 E8.08331
G1 X106.509 Y132.131 E8.62234
G1 X105.979 Y132.091 E8.65104
G1 X105.46 Y131.972 E8.67979
G1 X104.966 Y131.777 E8.70847
G1 X104.506 Y131.51 E8.73719
G1 X104.091 Y131.177 E8.76592
G1 X103.731 Y130.785 E8.79466
G1 X103.434 Y130.345 E8.82333
G1 X103.206 Y129.864 E8.85208
G1 X103.052 Y129.355 E8.88079
G1 X102.969 Y128.576 E8.9231
G1 X103.02 Y116.491 E9.57569
G1 X102.969 Y101.521 E10.38408
G1 X103.007 Y100.991 E10.41277
G1 X103.124 Y100.472 E10.4415
G1 X103.318 Y99.977 E10.47021
G1 X103.583 Y99.516 E10.49892
G1 X103.915 Y99.1 E10.52766
G0 F4500 X104.27 Y99.25
G1 F1800 X104.655 Y98.925 E10.55487
G1 X105.087 Y98.665 E10.5821
G1 X105.554 Y98.476 E10.6093
G1 X106.045 Y98.363 E10.63651
G1 X106.509 Y98.329 E10.66163
G1 X116.491 Y98.33 E11.20066
G1 X116.994 Y98.37 E11.22791
G1 X117.483 Y98.489 E11.25509
G1 X117.948 Y98.684 E11.28231
G1 X118.377 Y98.949 E11.30954
G1 X118.757 Y99.279 E11.33672
G1 X119.081 Y99.665 E11.36393
G1 X119.34 Y100.098 E11.39118
G1 X119.528 Y100.566 E11.41842
G1 X119.639 Y101.057 E11.4456
G1 X119.671 Y101.523 E11.47082
G1 X119.62 Y113.607 E12.12336
G1 X119.671 Y128.58 E12.93191
G1 X119.633 Y129.083 E12.95915
G1 X119.516 Y129.573 E12.98635
G1 X119.322 Y130.038 E13.01356
G1 X119.058 Y130.468 E13.04081
G1 X118.73 Y130.85 E13.068
G1 X118.345 Y131.175 E13.0952
G1 X117.913 Y131.435 E13.12243
G1 X117.446 Y131.624 E13.14964
G1 X116.955 Y131.737 E13.17684
G1 X116.491 Y131.771 E13.20197
G1 X106.509 Y131.771 E13.74099
G1 X106.007 Y131.731 E13.76819
G1 X105.517 Y131.612 E13.79542
G1 X105.052 Y131.418 E13.82263
G1 X104.624 Y131.152 E13.84984
G1 X104.243 Y130.822 E13.87706
G1 X103.919 Y130.436 E13.90427
G1 X103.66 Y130.003 E13.93151
G1 X103.473 Y129.536 E13.95868
G1 X103.361 Y129.044 E13.98593
G1 X103.329 Y128.578 E14.01115
G1 X103.38 Y116.493 E14.66375
G1 X103.329 Y101.52 E15.47229
G1 X103.367 Y101.017 E15.49953
G1 X103.484 Y100.527 E15.52674
G1 X103.678 Y100.062 E15.55394
G1 X103.942 Y99.632 E15.58119
G1 X104.27 Y99.25 E15.60838
G10
G0 F4500 X105.836 Y112.164
G0 X107.068 Y117.924
G0 X107.068 Y119.168
G0 X107.4 Y119.5
;TYPE:WALL-INNER
G11
G1 F1800 X115.6 Y119.5 E16.05118
G1 X115.6 Y127.7 E16.49398
G1 X107.4 Y127.7 E16.93678
G1 X107.4 Y119.5 E17.37958
G0 F4500 X110.028 Y121.823
G1 F1800 X109.634 Y122.245 E17.41076
G1 X109.356 Y122.75 E17.44189
G1 X109.212 Y123.311 E17.47316
G1 X109.212 Y123.888 E17.50432
G1 X109.356 Y124.449 E17.5356
G1 X109.634 Y124.954 E17.56672
G1 X110.028 Y125.376 E17.5979
G1 X110.517 Y125.686 E17.62917
G1 X111.067 Y125.866 E17.66042
G1 X111.645 Y125.902 E17.69169
G1 X112.212 Y125.794 E17.72286
G1 X112.737 Y125.547 E17.75419
G1 X113.182 Y125.178 E17.7854
G1 X113.521 Y124.711 E17.81657
G1 X113.734 Y124.173 E17.84781
G1 X113.807 Y123.6 E17.879
G1 X113.734 Y123.026 E17.91025
G1 X113.521 Y122.488 E17.9415
G1 X113.182 Y122.021 E17.97266
G1 X112.737 Y121.652 E18.00387
G1 X112.212 Y121.405 E18.03521
G1 X111.645 Y121.297 E18.06637
G1 X111.067 Y121.333 E18.09765
G1 X110.517 Y121.513 E18.1289
G1 X110.028 Y121.823 E18.16016
G0 F4500 X110.26 Y122.102
G1 F1800 X109.928 Y122.458 E18.18645
G1 X109.693 Y122.884 E18.21272
G1 X109.572 Y123.356 E18.23903
G1 X109.572 Y123.843 E18.26533
G1 X109.693 Y124.315 E18.29164
G1 X109.928 Y124.741 E18.31791
G1 X110.26 Y125.097 E18.3442
G1 X110.672 Y125.358 E18.37054
G1 X111.135 Y125.51 E18.39685
G1 X111.622 Y125.54 E18.4232
G1 X112.1 Y125.449 E18.44948
G1 X112.542 Y125.241 E18.47585
G1 X112.917 Y124.93 E18.50216
G1 X113.203 Y124.536 E18.52845
G1 X113.383 Y124.083 E18.55477
G1 X113.444 Y123.6 E18.58106
G1 X113.383 Y123.116 E18.60741
G1 X113.203 Y122.663 E18.63373
G1 X112.917 Y122.269 E18.66002
G1 X112.542 Y121.958 E18.68633
G1 X112.1 Y121.75 E18.71271
G1 X111.622 Y121.659 E18.73898
G1 X111.135 Y121.689 E18.76533
G1 X110.672 Y121.841 E18.79164
G1 X110.26 Y122.102 E18.81798
G0 F4500 X110.197 Y122.026
G0 X107.11 Y119.21
G0 X107.04 Y119.14
G1 F1800 X115.96 Y119.14 E19.29966
G1 X115.96 Y128.06 E19.78134
G1 X107.04 Y128.06 E20.26302
G1 X107.04 Y119.14 E20.7447
G0 F4500 X107.11 Y119.21
G0 X107.11 Y127.99
G0 X106.7 Y128.4
;TYPE:WALL-OUTER
G1 F1800 X106.7 Y118.8 E21.2631
G1 X116.3 Y118.8 E21.7815
G1 X116.3 Y128.4 E22.2999
G1 X106.7 Y128.4 E22.8183
G0 F4500 X107.11 Y127.99
G0 X109.896 Y122.435
G0 X110.235 Y122.072
G0 X110.655 Y121.805
G0 X111.128 Y121.65
G0 X112.076 Y121.644
G0 X111.994 Y122.076
G1 F1800 X111.6 Y122.001 E22.83996
G1 X111.2 Y122.026 E22.8616
G1 X110.818 Y122.151 E22.88331
G1 X110.479 Y122.366 E22.90498
G1 X110.205 Y122.659 E22.92665
G1 X110.012 Y123.01 E22.94828
G1 X109.912 Y123.399 E22.96996
G1 X109.912 Y123.8 E22.99162
G1 X110.012 Y124.189 E23.01331
G1 X110.205 Y124.54 E23.03494
G1 X110.479 Y124.833 E23.0566
G1 X110.818 Y125.048 E23.07828
G1 X111.2 Y125.173 E23.09998
G1 X111.6 Y125.198 E23.12162
G1 X111.994 Y125.123 E23.14328
G1 X112.358 Y124.952 E23.165
G1 X112.667 Y124.696 E23.18667
G1 X112.903 Y124.371 E23.20836
G1 X113.051 Y123.998 E23.23003
G1 X113.101 Y123.6 E23.25169
G1 X113.051 Y123.201 E23.2734
G1 X112.903 Y122.828 E23.29507
G1 X112.667 Y122.503 E23.31676
G1 X112.358 Y122.247 E23.33843
G1 X111.994 Y122.076 E23.36015
G0 F4500 X112.076 Y121.644
G0 X112.043 Y121.207
;TYPE:SKIN
G1 F1800 X110.496 Y119.66 E23.47829
G0 X110.433 Y119.597
G0 F4500 X109.987 Y119.66
G1 F1800 X111.471 Y121.144 E23.59162
G0 X111.534 Y121.207
G0 F4500 X111 Y121.183
G1 F1800 X109.478 Y119.66 E23.70788
G0 X109.415 Y119.597
G0 F4500 X108.969 Y119.66
G1 F1800 X110.616 Y121.308 E23.8337
G0 X110.679 Y121.371
G0 F4500 X110.273 Y121.473
G1 F1800 X108.46 Y119.66 E23.97215
G0 X108.397 Y119.597
G0 F4500 X107.951 Y119.66
G1 F1800 X109.962 Y121.671 E24.12573
G0 X110.025 Y121.734
G0 F4500 X109.708 Y121.927
G1 F1800 X107.561 Y119.78 E24.28969
G0 X107.498 Y119.717
G0 F4500 X107.561 Y120.289
G1 F1800 X109.473 Y122.201 E24.43571
G0 X109.536 Y122.264
G0 F4500 X109.292 Y122.529
G1 F1800 X107.561 Y120.798 E24.5679
G0 X107.498 Y120.735
G0 F4500 X107.561 Y121.307
G1 F1800 X109.15 Y122.896 E24.68925
G0 X109.213 Y122.959
G0 F4500 X109.05 Y123.305
G1 F1800 X107.561 Y121.816 E24.80296
G0 X107.498 Y121.753
G0 F4500 X107.561 Y122.325
G1 F1800 X109.05 Y123.814 E24.91667
G0 X109.113 Y123.877
G0 F4500 X109.192 Y124.466
G1 F1800 X107.561 Y122.835 E25.04122
G0 X107.498 Y122.772
G0 F4500 X107.561 Y123.344
G1 F1800 X111.753 Y127.536 E25.36136
G0 X111.816 Y127.599
G0 F4500 X111.244 Y127.536
G1 F1800 X107.561 Y123.853 E25.64262
G0 X107.498 Y123.79
G0 F4500 X107.561 Y124.362
G1 F1800 X110.735 Y127.536 E25.88501
G0 X110.798 Y127.599
G0 F4500 X110.226 Y127.536
G1 F1800 X107.561 Y124.871 E26.08853
G0 X107.498 Y124.808
G0 F4500 X107.561 Y125.38
G1 F1800 X109.717 Y127.536 E26.25318
G0 X109.78 Y127.599
G0 F4500 X109.208 Y127.536
G1 F1800 X107.561 Y125.889 E26.37895
G0 X107.498 Y125.826
G0 F4500 X107.561 Y126.398
G1 F1800 X108.699 Y127.536 E26.46586
G0 X108.762 Y127.599
G0 F4500 X108.19 Y127.536
G1 F1800 X107.561 Y126.907 E26.5139
G0 X107.498 Y126.844
G0 F4500 X107.561 Y127.417
G1 F1800 X107.681 Y127.536 E26.52302
G0 F4500 X110.614 Y125.887
G1 F1800 X112.263 Y127.536 E26.64895
G0 X112.326 Y127.599
G0 F4500 X112.772 Y127.536
G1 F1800 X111.276 Y126.041 E26.76316
G0 X111.213 Y125.978
G0 F4500 X111.784 Y126.039
G1 F1800 X113.281 Y127.536 E26.87748
G0 X113.344 Y127.599
G0 F4500 X113.79 Y127.536
G1 F1800 X112.212 Y125.959 E26.99795
G0 X112.149 Y125.896
G0 F4500 X112.568 Y125.805
G1 F1800 X114.299 Y127.536 E27.13014
G0 X114.362 Y127.599
G0 F4500 X114.808 Y127.536
G1 F1800 X112.897 Y125.625 E27.27608
G0 X112.834 Y125.562
G0 F4500 X113.175 Y125.394
G1 F1800 X115.317 Y127.536 E27.43966
G0 X115.38 Y127.599
G0 F4500 X115.438 Y127.147
G1 F1800 X113.417 Y125.126 E27.594
G0 X113.354 Y125.063
G0 F4500 X113.631 Y124.831
G1 F1800 X115.438 Y126.638 E27.732
G0 X115.501 Y126.701
G0 F4500 X115.438 Y126.129
G1 F1800 X113.786 Y124.478 E27.85812
G0 X113.723 Y124.415
G0 F4500 X113.907 Y124.09
G1 F1800 X115.438 Y125.62 E27.975
G0 X115.501 Y125.683
G0 F4500 X115.438 Y125.111
G1 F1800 X113.965 Y123.638 E28.08749
G0 X113.902 Y123.575
G0 F4500 X113.902 Y123.066
G1 F1800 X115.438 Y124.602 E28.20479
G0 X115.501 Y124.665
G0 F4500 X115.438 Y124.092
G1 F1800 X113.422 Y122.077 E28.35871
G0 X113.359 Y122.014
G0 F4500 X113.023 Y121.678
G1 F1800 X111.005 Y119.66 E28.51282
G0 X110.942 Y119.597
G0 F4500 X111.514 Y119.66
G1 F1800 X115.438 Y123.583 E28.81244
G0 X115.501 Y123.646
G0 F4500 X115.438 Y123.074
G1 F1800 X112.024 Y119.66 E29.07316
G0 X111.961 Y119.597
G0 F4500 X112.533 Y119.66
G1 F1800 X115.438 Y122.565 E29.29501
G0 X115.501 Y122.628
G0 F4500 X115.438 Y122.056
G1 F1800 X113.042 Y119.66 E29.47799
G0 X112.979 Y119.597
G0 F4500 X113.551 Y119.66
G1 F1800 X115.438 Y121.547 E29.62209
G0 X115.501 Y121.61
G0 F4500 X115.438 Y121.038
G1 F1800 X114.06 Y119.66 E29.72733
G0 X113.997 Y119.597
G0 F4500 X114.569 Y119.66
G1 F1800 X115.438 Y120.529 E29.79369
G0 X115.501 Y120.592
G0 F4500 X115.438 Y120.02
G1 F1800 X115.078 Y119.66 E29.82118
G10
G0 F4500 X115.6 Y119.18
G0 X115.6 Y117.924
G0 X115.6 Y112.176
G0 X115.6 Y110.92
G0 X115.6 Y110.6
;TYPE:WALL-INNER
G11
G1 F1800 X107.4 Y110.6 E30.26398
G1 X107.4 Y102.4 E30.70678
G1 X115.6 Y102.4 E31.14958
G1 X115.6 Y110.6 E31.59238
G0 F4500 X113.182 Y108.079
G1 F1800 X113.521 Y107.612 E31.62354
G1 X113.734 Y107.074 E31.65479
G1 X113.807 Y106.5 E31.68604
G1 X113.734 Y105.927 E31.71723
G1 X113.521 Y105.389 E31.74847
G1 X113.182 Y104.922 E31.77964
G1 X112.737 Y104.553 E31.81085
G1 X112.212 Y104.306 E31.84218
G1 X111.645 Y104.198 E31.87335
G1 X111.067 Y104.234 E31.90462
G1 X110.517 Y104.414 E31.93587
G1 X110.028 Y104.724 E31.96714
G1 X109.634 Y105.146 E31.99832
G1 X109.356 Y105.651 E32.02944
G1 X109.212 Y106.212 E32.06072
G1 X109.212 Y106.789 E32.09188
G1 X109.356 Y107.35 E32.12316
G1 X109.634 Y107.855 E32.15428
G1 X110.028 Y108.277 E32.18546
G1 X110.517 Y108.587 E32.21673
G1 X111.067 Y108.767 E32.24798
G1 X111.645 Y108.803 E32.27925
G1 X112.212 Y108.695 E32.31042
G1 X112.737 Y108.448 E32.34175
G1 X113.182 Y108.079 E32.37296
G0 F4500 X112.917 Y107.831
G1 F1800 X113.203 Y107.437 E32.39925
G1 X113.383 Y106.984 E32.42558
G1 X113.444 Y106.5 E32.45192
G1 X113.383 Y106.017 E32.47821
G1 X113.203 Y105.564 E32.50453
G1 X112.917 Y105.17 E32.53082
G1 X112.542 Y104.859 E32.55713
G1 X112.1 Y104.651 E32.58351
G1 X111.622 Y104.56 E32.60978
G1 X111.135 Y104.59 E32.63613
G1 X110.672 Y104.742 E32.66245
G1 X110.26 Y105.003 E32.68878
G1 X109.928 Y105.359 E32.71507
G1 X109.693 Y105.785 E32.74134
G1 X109.572 Y106.257 E32.76765
G1 X109.572 Y106.744 E32.79395
G1 X109.693 Y107.216 E32.82026
G1 X109.928 Y107.642 E32.84654
G1 X110.26 Y107.998 E32.87282
G1 X110.672 Y108.259 E32.89916
G1 X111.135 Y108.411 E32.92547
G1 X111.622 Y108.441 E32.95182
G1 X112.1 Y108.35 E32.9781
G1 X112.542 Y108.142 E33.00448
G1 X112.917 Y107.831 E33.03078
G0 F4500 X112.989 Y107.899
G0 X115.89 Y110.89
G0 X115.96 Y110.96
G1 F1800 X107.04 Y110.96 E33.51246
G1 X107.04 Y102.04 E33.99414
G1 X115.96 Y102.04 E34.47582
G1 X115.96 Y110.96 E34.9575
G0 F4500 X115.89 Y110.89
G0 X110.655 Y108.295
G0 X110.235 Y108.028
G0 X109.896 Y107.665
G0 X107.11 Y102.11
G0 X106.7 Y101.7
;TYPE:WALL-OUTER
G1 F1800 X116.3 Y101.7 E35.4759
G1 X116.3 Y111.3 E35.9943
G1 X106.7 Y111.3 E36.5127
G1 X106.7 Y101.7 E37.0311
G0 F4500 X107.11 Y102.11
G0 X112.546 Y104.751
G0 X112.358 Y105.148
G1 F1800 X111.994 Y104.977 E37.05282
G1 X111.6 Y104.902 E37.07448
G1 X111.2 Y104.927 E37.09612
G1 X110.818 Y105.052 E37.11783
G1 X110.479 Y105.267 E37.1395
G1 X110.205 Y105.56 E37.16116
G1 X110.012 Y105.911 E37.1828
G1 X109.912 Y106.3 E37.20448
G1 X109.912 Y106.701 E37.22614
G1 X110.012 Y107.09 E37.24783
G1 X110.205 Y107.441 E37.26946
G1 X110.479 Y107.734 E37.29112
G1 X110.818 Y107.949 E37.3128
G1 X111.2 Y108.074 E37.3345
G1 X111.6 Y108.099 E37.35614
G1 X111.994 Y108.024 E37.3778
G1 X112.358 Y107.853 E37.39952
G1 X112.667 Y107.597 E37.42119
G1 X112.903 Y107.272 E37.44288
G1 X113.051 Y106.899 E37.46455
G1 X113.101 Y106.5 E37.48626
G1 X113.051 Y106.102 E37.50792
G1 X112.903 Y105.729 E37.52959
G1 X112.667 Y105.404 E37.55128
G1 X112.358 Y105.148 E37.57295
G0 F4500 X112.546 Y104.751
G0 X112.326 Y104.18
;TYPE:SKIN
G1 F1800 X110.708 Y102.562 E37.69651
G0 X110.645 Y102.499
G0 F4500 X110.199 Y102.562
G1 F1800 X111.676 Y104.039 E37.80931
G0 X111.739 Y104.102
G0 F4500 X111.191 Y104.064
G1 F1800 X109.689 Y102.562 E37.92401
G0 X109.626 Y102.499
G0 F4500 X109.18 Y102.562
G1 F1800 X110.776 Y104.158 E38.04589
G0 X110.839 Y104.221
G0 F4500 X110.402 Y104.293
G1 F1800 X108.671 Y102.562 E38.17808
G0 X108.608 Y102.499
G0 F4500 X108.162 Y102.562
G1 F1800 X110.091 Y104.491 E38.3254
G0 X110.154 Y104.554
G0 F4500 X109.81 Y104.718
G1 F1800 X107.653 Y102.562 E38.49008
G0 X107.59 Y102.499
G0 F4500 X107.561 Y102.979
G1 F1800 X109.564 Y104.982 E38.64305
G0 X109.627 Y105.045
G0 F4500 X109.367 Y105.294
G1 F1800 X107.561 Y103.488 E38.78097
G0 X107.498 Y103.425
G0 F4500 X107.561 Y103.997
G1 F1800 X109.192 Y105.629 E38.90556
G0 X109.255 Y105.692
G0 F4500 X109.088 Y106.034
G1 F1800 X107.561 Y104.506 E39.02221
G0 X107.498 Y104.443
G0 F4500 X107.561 Y105.015
G1 F1800 X109.049 Y106.503 E39.13585
G0 X109.112 Y106.566
G0 F4500 X109.119 Y107.082
G1 F1800 X107.561 Y105.525 E39.25479
G0 X107.498 Y105.462
G0 F4500 X107.561 Y106.034
G1 F1800 X109.807 Y108.279 E39.42627
G0 X109.87 Y108.342
G0 F4500 X109.944 Y108.417
G1 F1800 X111.964 Y110.437 E39.58054
G0 X112.027 Y110.5
G0 F4500 X111.455 Y110.437
G1 F1800 X107.561 Y106.543 E39.87791
G0 X107.498 Y106.48
G0 F4500 X107.561 Y107.052
G1 F1800 X110.946 Y110.437 E40.13642
G0 X111.009 Y110.5
G0 F4500 X110.437 Y110.437
G1 F1800 X107.561 Y107.561 E40.35605
G0 X107.498 Y107.498
